P3
96 96
255
251 246 242 251 246 242 251 246 242 251 246 242 251 246 242 251 246 242 251 246 242 251 246 242 251 246 242 251 246 242 251 246 242 251 246 242 251 246 242 251 246 242 251 246 242 251 246 242 251 246 242 251 246 242 251 246 242 251 246 242 251 246 242 251 246 242 251 246 242 251 246 242 251 246 242 251 246 242 251 246 242 251 246 242 251 246 242 251 246 242 251 246 242 251 246 242 251 246 242 251 246 242 251 246 242 251 246 242 251 246 242 251 246 242 251 246 242 251 246 242 251 246 242 251 246 242 251 246 242 251 246 242 251 246 242 251 246 242 251 246 242 251 246 242 251 246 242 251 246 242 251 246 242 251 246 242 251 246 242 251 246 242 251 246 242 251 246 242 251 246 242 251 246 242 251 246 242 251 246 242 251 246 242 251 246 242 251 246 242 251 246 242 251 246 242 251 246 242 251 246 242 251 246 242 251 246 242 251 246 242 251 246 242 251 246 242 251 246 242 251 246 242 251 246 242 251 246 242 251 246 242 251 246 242 251 246 242 251 246 242 251 246 242 251 246 242 251 246 242 251 246 242 251 246 242 251 246 242 251 246 242 251 246 242 251 246 242 251 246 242 251 246 242 251 246 242 251 246 242 251 246 242 251 246 242 251 246 242
251 246 242 251 246 242 251 246 242 251 246 242 251 246 242 251 246 242 251 246 242 251 246 242 251 246 242 251 246 242 251 246 242 251 246 242 251 246 242 251 246 242 251 246 242 251 246 242 251 246 242 251 246 242 251 246 242 251 246 242 251 246 242 251 246 242 251 246 242 251 246 242 251 246 242 251 246 242 251 246 242 251 246 242 251 246 242 251 246 242 251 246 242 251 246 242 251 246 242 251 246 242 251 246 242 251 246 242 251 246 242 251 246 242 251 246 242 251 246 242 251 246 242 251 246 242 251 246 242 251 246 242 251 246 242 251 246 242 251 246 242 251 246 242 251 246 242 251 246 242 251 246 242 251 246 242 251 246 242 251 246 242 251 246 242 251 246 242 251 246 242 251 246 242 251 246 242 251 246 242 251 246 242 251 246 242 251 246 242 251 246 242 251 246 242 251 246 242 251 246 242 251 246 242 251 246 242 251 246 242 251 246 242 251 246 242 251 246 242 251 246 242 251 246 242 251 246 242 251 246 242 251 246 242 251 246 242 251 246 242 251 246 242 251 246 242 251 246 242 251 246 242 251 246 242 251 246 242 251 246 242 251 246 242 251 246 242 251 246 242 251 246 242 251 246 242 251 246 242 251 246 242 251 246 242 251 246 242
251 246 242 251 246 242 251 246 242 251 246 242 251 246 242 251 246 242 251 246 242 251 246 242 251 246 242 251 246 242 251 246 242 251 246 242 251 246 242 251 246 242 251 246 242 251 246 242 251 246 242 251 246 242 251 246 242 251 246 242 251 246 242 251 246 242 251 246 242 251 246 242 251 246 242 251 246 242 251 246 242 251 246 242 251 246 242 251 246 242 251 246 242 251 246 242 251 246 242 251 246 242 251 246 242 251 246 242 251 246 242 251 246 242 251 246 242 251 246 242 251 246 242 251 246 242 251 246 242 251 246 242 251 246 242 251 246 242 251 246 242 251 246 242 251 246 242 251 246 242 251 246 242 251 246 242 251 246 242 251 246 242 251 246 242 251 246 242 251 246 242 251 246 242 251 246 242 251 246 242 251 246 242 251 246 242 251 246 242 251 246 242 251 246 242 251 246 242 251 246 242 251 246 242 251 246 242 251 246 242 251 246 242 251 246 242 251 246 242 251 246 242 251 246 242 251 246 242 251 246 242 251 246 242 251 246 242 251 246 242 251 246 242 251 246 242 251 246 242 251 246 242 251 246 242 251 246 242 251 246 242 251 246 242 251 246 242 251 246 242 251 246 242 251 246 242 251 246 242 251 246 242 251 246 242 251 246 242
251 246 242 251 246 242 251 246 242 251 246 242 251 246 242 251 246 242 251 246 242 251 246 242 251 246 242 251 246 242 251 246 242 251 246 242 251 246 242 251 246 242 251 246 242 251 246 242 251 246 242 251 246 242 251 246 242 251 246 242 251 246 242 251 246 242 251 246 242 251 246 242 251 246 242 251 246 242 251 246 242 251 246 242 251 246 242 251 246 242 251 246 242 251 246 242 251 246 242 251 246 242 251 246 242 251 246 242 251 246 242 251 246 242 251 246 242 251 246 242 251 246 242 251 246 242 251 246 242 251 246 242 251 246 242 251 246 242 251 246 242 251 246 242 251 246 242 251 246 242 251 246 242 251 246 242 251 246 242 251 246 242 251 246 242 251 246 242 251 246 242 251 246 242 251 246 242 251 246 242 251 246 242 251 246 242 251 246 242 251 246 242 251 246 242 251 246 242 251 246 242 251 246 242 251 246 242 251 246 242 251 246 242 251 246 242 251 246 242 251 246 242 251 246 242 251 246 242 251 246 242 251 246 242 251 246 242 251 246 242 251 246 242 251 246 242 251 246 242 251 246 242 251 246 242 251 246 242 251 246 242 251 246 242 251 246 242 251 246 242 251 246 242 251 246 242 251 246 242 251 246 242 251 246 242 251 246 242
251 246 242 251 246 242 251 246 242 251 246 242 251 246 242 251 246 242 251 246 242 251 246 242 251 246 242 251 246 242 251 246 242 251 246 242 251 246 242 251 246 242 251 246 242 251 246 242 251 246 242 251 246 242 251 246 242 251 246 242 251 246 242 251 246 242 251 246 242 251 246 242 251 246 242 251 246 242 251 246 242 251 246 242 251 246 242 251 246 242 251 246 242 251 246 242 251 246 242 251 246 242 251 246 242 251 246 242 251 246 242 251 246 242 251 246 242 251 246 242 251 246 242 251 246 242 251 246 242 251 246 242 251 246 242 251 246 242 251 246 242 251 246 242 251 246 242 251 246 242 251 246 242 251 246 242 251 246 242 251 246 242 251 246 242 251 246 242 251 246 242 251 246 242 251 246 242 251 246 242 251 246 242 251 246 242 251 246 242 251 246 242 251 246 242 251 246 242 251 246 242 251 246 242 251 246 242 251 246 242 251 246 242 251 246 242 251 246 242 251 246 242 251 246 242 251 246 242 251 246 242 251 246 242 251 246 242 251 246 242 251 246 242 251 246 242 251 246 242 251 246 242 251 246 242 251 246 242 251 246 242 251 246 242 251 246 242 251 246 242 251 246 242 251 246 242 251 246 242 251 246 242 251 246 242 251 246 242
251 246 242 251 246 242 251 246 242 251 246 242 251 246 242 251 246 242 251 246 242 251 246 242 251 246 242 251 246 242 251 246 242 251 246 242 251 246 242 251 246 242 251 246 242 251 246 242 251 246 242 251 246 242 251 246 242 251 246 242 251 246 242 251 246 242 251 246 242 251 246 242 251 246 242 251 246 242 251 246 242 251 246 242 251 246 242 251 246 242 251 246 242 251 246 242 251 246 242 251 246 242 251 246 242 251 246 242 251 246 242 251 246 242 251 246 242 184 154 104 184 154 104 184 154 104 184 154 104 184 154 104 184 154 104 184 154 104 184 154 104 184 154 104 184 154 104 184 154 104 184 154 104 184 154 104 184 154 104 184 154 104 184 154 104 184 154 104 184 154 104 184 154 104 251 246 242 251 246 242 251 246 242 251 246 242 251 246 242 251 246 242 251 246 242 251 246 242 251 246 242 251 246 242 251 246 242 251 246 242 251 246 242 251 246 242 251 246 242 251 246 242 251 246 242 251 246 242 251 246 242 251 246 242 251 246 242 251 246 242 251 246 242 251 246 242 251 246 242 251 246 242 251 246 242 251 246 242 251 246 242 251 246 242 251 246 242 251 246 242 251 246 242 251 246 242 251 246 242 251 246 242 251 246 242 251 246 242
251 246 242 251 246 242 251 246 242 251 246 242 251 246 242 251 246 242 251 246 242 251 246 242 251 246 242 251 246 242 251 246 242 251 246 242 251 246 242 251 246 242 251 246 242 251 246 242 251 246 242 251 246 242 251 246 242 251 246 242 251 246 242 251 246 242 251 246 242 251 246 242 251 246 242 251 246 242 251 246 242 251 246 242 251 246 242 251 246 242 251 246 242 251 246 242 251 246 242 251 246 242 251 246 242 184 154 104 184 154 104 184 154 104 184 154 104 184 154 104 184 154 104 184 154 104 184 154 104 184 154 104 184 154 104 184 154 104 184 154 104 184 154 104 255 250 247 184 154 104 184 154 104 184 154 104 184 154 104 184 154 104 184 154 104 184 154 104 184 154 104 184 154 104 184 154 104 184 154 104 184 154 104 184 154 104 251 246 242 251 246 242 251 246 242 251 246 242 251 246 242 251 246 242 251 246 242 251 246 242 251 246 242 251 246 242 251 246 242 251 246 242 251 246 242 251 246 242 251 246 242 251 246 242 251 246 242 251 246 242 251 246 242 251 246 242 251 246 242 251 246 242 251 246 242 251 246 242 251 246 242 251 246 242 251 246 242 251 246 242 251 246 242 251 246 242 251 246 242 251 246 242 251 246 242 251 246 242
251 246 242 251 246 242 251 246 242 251 246 242 251 246 242 251 246 242 251 246 242 251 246 242 251 246 242 251 246 242 251 246 242 251 246 242 251 246 242 251 246 242 251 246 242 251 246 242 251 246 242 251 246 242 251 246 242 251 246 242 251 246 242 251 246 242 251 246 242 251 246 242 251 246 242 251 246 242 251 246 242 251 246 242 251 246 242 251 246 242 251 246 242 251 246 242 251 246 242 184 154 104 184 154 104 184 154 104 184 154 104 184 154 104 184 154 104 255 250 247 255 250 247 255 250 247 255 250 247 255 250 247 255 250 247 255 250 247 255 250 247 255 250 247 255 250 247 255 250 247 255 250 247 255 250 247 255 250 247 255 250 247 255 250 247 255 250 247 255 250 247 255 250 247 184 154 104 184 154 104 184 154 104 184 154 104 184 154 104 184 154 104 251 246 242 251 246 242 251 246 242 251 246 242 251 246 242 251 246 242 251 246 242 251 246 242 251 246 242 251 246 242 251 246 242 251 246 242 251 246 242 251 246 242 251 246 242 251 246 242 251 246 242 251 246 242 251 246 242 251 246 242 251 246 242 251 246 242 251 246 242 251 246 242 251 246 242 251 246 242 251 246 242 251 246 242 251 246 242 251 246 242 251 246 242 251 246 242
251 246 242 251 246 242 251 246 242 251 246 242 251 246 242 251 246 242 251 246 242 251 246 242 251 246 242 251 246 242 251 246 242 251 246 242 251 246 242 251 246 242 251 246 242 251 246 242 251 246 242 251 246 242 251 246 242 251 246 242 251 246 242 251 246 242 251 246 242 251 246 242 251 246 242 251 246 242 251 246 242 251 246 242 251 246 242 251 246 242 184 154 104 184 154 104 184 154 104 184 154 104 184 154 104 184 154 104 255 250 247 255 250 247 255 250 247 255 250 247 255 250 247 255 250 247 255 250 247 255 250 247 255 250 247 255 250 247 255 250 247 255 250 247 255 250 247 255 250 247 255 250 247 255 250 247 255 250 247 255 250 247 255 250 247 255 250 247 255 250 247 255 250 247 255 250 247 255 250 247 255 250 247 184 154 104 184 154 104 184 154 104 184 154 104 184 154 104 184 154 104 251 246 242 251 246 242 251 246 242 251 246 242 251 246 242 251 246 242 251 246 242 251 246 242 251 246 242 251 246 242 251 246 242 251 246 242 251 246 242 251 246 242 251 246 242 251 246 242 251 246 242 251 246 242 251 246 242 251 246 242 251 246 242 251 246 242 251 246 242 251 246 242 251 246 242 251 246 242 251 246 242 251 246 242 251 246 242
251 246 242 251 246 242 251 246 242 251 246 242 251 246 242 251 246 242 251 246 242 251 246 242 251 246 242 251 246 242 251 246 242 251 246 242 251 246 242 251 246 242 251 246 242 251 246 242 251 246 242 251 246 242 251 246 242 251 246 242 251 246 242 251 246 242 251 246 242 251 246 242 251 246 242 251 246 242 251 246 242 251 246 242 184 154 104 184 154 104 184 154 104 184 154 104 184 154 104 255 250 247 255 250 247 255 250 247 255 250 247 255 250 247 255 250 247 255 250 247 255 250 247 255 250 247 255 250 247 255 250 247 255 250 247 255 250 247 255 250 247 255 250 247 255 250 247 255 250 247 255 250 247 255 250 247 255 250 247 255 250 247 255 250 247 255 250 247 255 250 247 255 250 247 255 250 247 255 250 247 255 250 247 255 250 247 255 250 247 255 250 247 184 154 104 184 154 104 184 154 104 184 154 104 184 154 104 251 246 242 251 246 242 251 246 242 251 246 242 251 246 242 251 246 242 251 246 242 251 246 242 251 246 242 251 246 242 251 246 242 251 246 242 251 246 242 251 246 242 251 246 242 251 246 242 251 246 242 251 246 242 251 246 242 251 246 242 251 246 242 251 246 242 251 246 242 251 246 242 251 246 242 251 246 242 251 246 242
251 246 242 251 246 242 251 246 242 251 246 242 251 246 242 251 246 242 251 246 242 251 246 242 251 246 242 251 246 242 251 246 242 251 246 242 251 246 242 251 246 242 251 246 242 251 246 242 251 246 242 251 246 242 251 246 242 251 246 242 251 246 242 251 246 242 251 246 242 251 246 242 251 246 242 251 246 242 184 154 104 184 154 104 184 154 104 184 154 104 184 154 104 255 250 247 255 250 247 255 250 247 255 250 247 255 250 247 255 250 247 255 250 247 255 250 247 255 250 247 255 250 247 255 250 247 255 250 247 255 250 247 255 250 247 255 250 247 255 250 247 255 250 247 255 250 247 255 250 247 255 250 247 255 250 247 255 250 247 255 250 247 255 250 247 255 250 247 255 250 247 255 250 247 255 250 247 255 250 247 255 250 247 255 250 247 255 250 247 255 250 247 255 250 247 255 250 247 184 154 104 184 154 104 184 154 104 184 154 104 184 154 104 251 246 242 251 246 242 251 246 242 251 246 242 251 246 242 251 246 242 251 246 242 184 154 104 251 246 242 251 246 242 251 246 242 251 246 242 251 246 242 251 246 242 251 246 242 251 246 242 251 246 242 251 246 242 251 246 242 251 246 242 251 246 242 251 246 242 251 246 242 251 246 242 251 246 242
251 246 242 251 246 242 251 246 242 251 246 242 251 246 242 251 246 242 251 246 242 251 246 242 251 246 242 251 246 242 251 246 242 251 246 242 251 246 242 251 246 242 251 246 242 251 246 242 251 246 242 251 246 242 251 246 242 251 246 242 251 246 242 251 246 242 251 246 242 251 246 242 251 246 242 184 154 104 184 154 104 184 154 104 184 154 104 255 250 247 255 250 247 255 250 247 255 250 247 255 250 247 255 250 247 255 250 247 255 250 247 255 250 247 255 250 247 255 250 247 255 250 247 255 250 247 255 250 247 255 250 247 255 250 247 255 250 247 255 250 247 255 250 247 255 250 247 255 250 247 255 250 247 255 250 247 255 250 247 255 250 247 255 250 247 255 250 247 255 250 247 255 250 247 255 250 247 255 250 247 255 250 247 255 250 247 255 250 247 255 250 247 255 250 247 255 250 247 255 250 247 255 250 247 184 154 104 184 154 104 184 154 104 184 154 104 251 246 242 251 246 242 251 246 242 251 246 242 251 246 242 251 246 242 184 154 104 251 246 242 251 246 242 251 246 242 251 246 242 251 246 242 251 246 242 251 246 242 251 246 242 251 246 242 251 246 242 251 246 242 251 246 242 251 246 242 251 246 242 251 246 242 251 246 242 251 246 242
251 246 242 251 246 242 251 246 242 251 246 242 251 246 242 251 246 242 251 246 242 251 246 242 251 246 242 251 246 242 251 246 242 251 246 242 251 246 242 251 246 242 251 246 242 251 246 242 251 246 242 251 246 242 251 246 242 251 246 242 251 246 242 251 246 242 251 246 242 184 154 104 184 154 104 184 154 104 184 154 104 255 250 247 255 250 247 255 250 247 255 250 247 255 250 247 255 250 247 255 250 247 255 250 247 255 250 247 255 250 247 255 250 247 255 250 247 255 250 247 255 250 247 255 250 247 255 250 247 255 250 247 255 250 247 255 250 247 255 250 247 255 250 247 255 250 247 255 250 247 255 250 247 255 250 247 255 250 247 255 250 247 255 250 247 255 250 247 255 250 247 255 250 247 255 250 247 255 250 247 255 250 247 255 250 247 255 250 247 255 250 247 255 250 247 255 250 247 255 250 247 255 250 247 255 250 247 255 250 247 184 154 104 184 154 104 184 154 104 184 154 104 251 246 242 251 246 242 251 246 242 251 246 242 184 154 104 251 246 242 251 246 242 251 246 242 251 246 242 251 246 242 251 246 242 251 246 242 251 246 242 251 246 242 251 246 242 251 246 242 251 246 242 251 246 242 251 246 242 251 246 242 251 246 242 251 246 242
251 246 242 251 246 242 251 246 242 251 246 242 251 246 242 251 246 242 251 246 242 251 246 242 251 246 242 251 246 242 251 246 242 251 246 242 251 246 242 251 246 242 251 246 242 251 246 242 251 246 242 251 246 242 251 246 242 251 246 242 251 246 242 251 246 242 184 154 104 184 154 104 184 154 104 255 250 247 255 250 247 255 250 247 255 250 247 255 250 247 255 250 247 255 250 247 255 250 247 255 250 247 255 250 247 255 250 247 255 250 247 255 250 247 255 250 247 255 250 247 255 250 247 255 250 247 255 250 247 255 250 247 255 250 247 255 250 247 255 250 247 255 250 247 255 250 247 255 250 247 255 250 247 255 250 247 255 250 247 255 250 247 255 250 247 255 250 247 255 250 247 255 250 247 255 250 247 255 250 247 255 250 247 255 250 247 255 250 247 255 250 247 255 250 247 255 250 247 255 250 247 255 250 247 255 250 247 255 250 247 255 250 247 255 250 247 184 154 104 184 154 104 184 154 104 251 246 242 251 246 242 251 246 242 184 154 104 251 246 242 251 246 242 251 246 242 251 246 242 251 246 242 251 246 242 251 246 242 251 246 242 251 246 242 251 246 242 251 246 242 251 246 242 251 246 242 251 246 242 251 246 242 251 246 242 251 246 242
251 246 242 251 246 242 251 246 242 251 246 242 251 246 242 251 246 242 251 246 242 251 246 242 251 246 242 251 246 242 251 246 242 251 246 242 251 246 242 251 246 242 251 246 242 251 246 242 251 246 242 251 246 242 251 246 242 251 246 242 251 246 242 184 154 104 184 154 104 184 154 104 255 250 247 255 250 247 255 250 247 255 250 247 255 250 247 255 250 247 255 250 247 255 250 247 255 250 247 255 250 247 255 250 247 255 250 247 255 250 247 255 250 247 255 250 247 255 250 247 255 250 247 255 250 247 255 250 247 255 250 247 255 250 247 255 250 247 255 250 247 255 250 247 255 250 247 255 250 247 255 250 247 255 250 247 255 250 247 255 250 247 255 250 247 255 250 247 255 250 247 255 250 247 255 250 247 255 250 247 255 250 247 255 250 247 255 250 247 255 250 247 255 250 247 255 250 247 255 250 247 255 250 247 255 250 247 255 250 247 255 250 247 255 250 247 255 250 247 184 154 104 184 154 104 184 154 104 251 246 242 251 246 242 184 154 104 251 246 242 251 246 242 251 246 242 251 246 242 251 246 242 251 246 242 251 246 242 251 246 242 251 246 242 251 246 242 251 246 242 251 246 242 251 246 242 251 246 242 251 246 242 251 246 242 251 246 242
251 246 242 251 246 242 251 246 242 251 246 242 251 246 242 251 246 242 251 246 242 251 246 242 251 246 242 251 246 242 251 246 242 251 246 242 251 246 242 251 246 242 251 246 242 251 246 242 251 246 242 251 246 242 251 246 242 184 154 104 184 154 104 184 154 104 184 154 104 255 250 247 255 250 247 255 250 247 255 250 247 255 250 247 255 250 247 255 250 247 255 250 247 255 250 247 255 250 247 255 250 247 255 250 247 255 250 247 255 250 247 255 250 247 255 250 247 255 250 247 255 250 247 255 250 247 255 250 247 255 250 247 255 250 247 255 250 247 255 250 247 255 250 247 255 250 247 255 250 247 255 250 247 255 250 247 255 250 247 255 250 247 255 250 247 255 250 247 255 250 247 255 250 247 255 250 247 255 250 247 255 250 247 255 250 247 255 250 247 255 250 247 255 250 247 255 250 247 255 250 247 255 250 247 255 250 247 255 250 247 255 250 247 255 250 247 255 250 247 255 250 247 184 154 104 184 154 104 184 154 104 184 154 104 184 154 104 251 246 242 251 246 242 251 246 242 251 246 242 251 246 242 251 246 242 251 246 242 251 246 242 251 246 242 251 246 242 251 246 242 251 246 242 251 246 242 251 246 242 251 246 242 251 246 242 251 246 242
251 246 242 251 246 242 251 246 242 251 246 242 251 246 242 251 246 242 251 246 242 251 246 242 251 246 242 251 246 242 251 246 242 251 246 242 251 246 242 251 246 242 251 246 242 251 246 242 251 246 242 251 246 242 184 154 104 184 154 104 184 154 104 255 250 247 255 250 247 255 250 247 255 250 247 255 250 247 255 250 247 255 250 247 255 250 247 255 250 247 255 250 247 255 250 247 255 250 247 255 250 247 255 250 247 255 250 247 255 250 247 255 250 247 255 250 247 255 250 247 255 250 247 255 250 247 255 250 247 255 250 247 255 250 247 255 250 247 255 250 247 255 250 247 255 250 247 255 250 247 255 250 247 255 250 247 255 250 247 255 250 247 255 250 247 255 250 247 255 250 247 255 250 247 255 250 247 255 250 247 255 250 247 255 250 247 255 250 247 255 250 247 255 250 247 255 250 247 255 250 247 255 250 247 255 250 247 255 250 247 255 250 247 255 250 247 255 250 247 255 250 247 255 250 247 255 250 247 184 154 104 184 154 104 184 154 104 251 246 242 251 246 242 251 246 242 251 246 242 251 246 242 251 246 242 251 246 242 251 246 242 251 246 242 251 246 242 251 246 242 251 246 242 251 246 242 251 246 242 251 246 242 251 246 242 251 246 242
251 246 242 251 246 242 251 246 242 251 246 242 251 246 242 251 246 242 251 246 242 251 246 242 251 246 242 251 246 242 251 246 242 251 246 242 251 246 242 251 246 242 251 246 242 251 246 242 251 246 242 184 154 104 184 154 104 184 154 104 255 250 247 255 250 247 255 250 247 255 250 247 255 250 247 255 250 247 255 250 247 255 250 247 255 250 247 255 250 247 255 250 247 255 250 247 255 250 247 255 250 247 255 250 247 255 250 247 255 250 247 255 250 247 255 250 247 255 250 247 255 250 247 255 250 247 255 250 247 255 250 247 255 250 247 255 250 247 255 250 247 255 250 247 255 250 247 255 250 247 255 250 247 255 250 247 255 250 247 255 250 247 255 250 247 255 250 247 255 250 247 255 250 247 255 250 247 255 250 247 255 250 247 255 250 247 255 250 247 255 250 247 255 250 247 255 250 247 255 250 247 255 250 247 255 250 247 255 250 247 255 250 247 255 250 247 255 250 247 255 250 247 255 250 247 255 250 247 255 250 247 184 154 104 184 154 104 184 154 104 251 246 242 251 246 242 251 246 242 251 246 242 251 246 242 251 246 242 251 246 242 251 246 242 251 246 242 251 246 242 251 246 242 251 246 242 251 246 242 251 246 242 251 246 242 251 246 242
251 246 242 251 246 242 251 246 242 251 246 242 251 246 242 251 246 242 251 246 242 251 246 242 251 246 242 251 246 242 251 246 242 251 246 242 251 246 242 251 246 242 251 246 242 251 246 242 184 154 104 184 154 104 184 154 104 255 250 247 255 250 247 255 250 247 255 250 247 255 250 247 255 250 247 255 250 247 255 250 247 255 250 247 255 250 247 255 250 247 255 250 247 255 250 247 255 250 247 255 250 247 73 53 50 73 53 50 73 53 50 73 53 50 73 53 50 73 53 50 73 53 50 73 53 50 255 250 247 255 250 247 255 250 247 255 250 247 255 250 247 255 250 247 255 250 247 255 250 247 255 250 247 255 250 247 255 250 247 255 250 247 255 250 247 255 250 247 255 250 247 255 250 247 255 250 247 255 250 247 255 250 247 255 250 247 255 250 247 255 250 247 255 250 247 255 250 247 255 250 247 255 250 247 255 250 247 255 250 247 255 250 247 255 250 247 255 250 247 255 250 247 255 250 247 255 250 247 255 250 247 255 250 247 184 154 104 184 154 104 184 154 104 251 246 242 251 246 242 251 246 242 251 246 242 251 246 242 251 246 242 251 246 242 251 246 242 251 246 242 251 246 242 251 246 242 251 246 242 251 246 242 251 246 242 251 246 242
251 246 242 251 246 242 251 246 242 251 246 242 251 246 242 251 246 242 251 246 242 251 246 242 251 246 242 251 246 242 251 246 242 251 246 242 251 246 242 251 246 242 251 246 242 184 154 104 184 154 104 184 154 104 255 250 247 255 250 247 255 250 247 255 250 247 255 250 247 255 250 247 255 250 247 255 250 247 255 250 247 255 250 247 255 250 247 255 250 247 255 250 247 255 250 247 255 250 247 255 250 247 73 53 50 73 53 50 73 53 50 73 53 50 73 53 50 73 53 50 73 53 50 73 53 50 255 250 247 255 250 247 255 250 247 255 250 247 255 250 247 255 250 247 255 250 247 255 250 247 255 250 247 255 250 247 255 250 247 255 250 247 255 250 247 255 250 247 255 250 247 255 250 247 255 250 247 255 250 247 255 250 247 255 250 247 255 250 247 255 250 247 255 250 247 255 250 247 255 250 247 255 250 247 255 250 247 255 250 247 255 250 247 255 250 247 255 250 247 255 250 247 255 250 247 255 250 247 255 250 247 255 250 247 184 154 104 184 154 104 184 154 104 184 154 104 251 246 242 251 246 242 251 246 242 251 246 242 251 246 242 251 246 242 251 246 242 251 246 242 251 246 242 251 246 242 251 246 242 251 246 242 251 246 242 251 246 242
251 246 242 251 246 242 251 246 242 251 246 242 251 246 242 251 246 242 251 246 242 251 246 242 251 246 242 251 246 242 251 246 242 251 246 242 251 246 242 251 246 242 251 246 242 184 154 104 184 154 104 255 250 247 255 250 247 255 250 247 255 250 247 255 250 247 255 250 247 255 250 247 255 250 247 255 250 247 255 250 247 255 250 247 255 250 247 255 250 247 255 250 247 255 250 247 255 250 247 255 250 247 73 53 50 73 53 50 73 53 50 73 53 50 73 53 50 73 53 50 73 53 50 73 53 50 255 250 247 255 250 247 255 250 247 255 250 247 255 250 247 255 250 247 255 250 247 255 250 247 255 250 247 255 250 247 255 250 247 255 250 247 255 250 247 255 250 247 255 250 247 255 250 247 255 250 247 255 250 247 255 250 247 255 250 247 255 250 247 255 250 247 255 250 247 255 250 247 255 250 247 255 250 247 255 250 247 255 250 247 255 250 247 255 250 247 255 250 247 255 250 247 255 250 247 255 250 247 255 250 247 255 250 247 184 154 104 255 250 247 184 154 104 184 154 104 251 246 242 251 246 242 251 246 242 251 246 242 251 246 242 251 246 242 251 246 242 251 246 242 251 246 242 251 246 242 251 246 242 251 246 242 251 246 242 251 246 242
251 246 242 251 246 242 251 246 242 251 246 242 251 246 242 251 246 242 251 246 242 251 246 242 251 246 242 251 246 242 251 246 242 251 246 242 251 246 242 251 246 242 184 154 104 184 154 104 255 250 247 255 250 247 255 250 247 255 250 247 255 250 247 255 250 247 255 250 247 255 250 247 255 250 247 255 250 247 255 250 247 255 250 247 255 250 247 255 250 247 255 250 247 255 250 247 255 250 247 255 250 247 73 53 50 73 53 50 73 53 50 73 53 50 73 53 50 73 53 50 73 53 50 73 53 50 255 250 247 255 250 247 255 250 247 255 250 247 255 250 247 255 250 247 255 250 247 255 250 247 255 250 247 255 250 247 255 250 247 255 250 247 255 250 247 255 250 247 255 250 247 255 250 247 255 250 247 255 250 247 255 250 247 255 250 247 255 250 247 255 250 247 255 250 247 255 250 247 184 154 104 184 154 104 184 154 104 184 154 104 184 154 104 184 154 104 184 154 104 184 154 104 184 154 104 184 154 104 184 154 104 184 154 104 184 154 104 184 154 104 184 154 104 184 154 104 184 154 104 184 154 104 184 154 104 184 154 104 184 154 104 184 154 104 184 154 104 184 154 104 184 154 104 251 246 242 251 246 242 251 246 242 251 246 242 251 246 242
251 246 242 251 246 242 251 246 242 251 246 242 251 246 242 251 246 242 251 246 242 251 246 242 251 246 242 251 246 242 251 246 242 251 246 242 251 246 242 184 154 104 184 154 104 184 154 104 255 250 247 255 250 247 255 250 247 255 250 247 255 250 247 255 250 247 255 250 247 255 250 247 255 250 247 255 250 247 255 250 247 255 250 247 255 250 247 255 250 247 255 250 247 255 250 247 255 250 247 255 250 247 73 53 50 73 53 50 73 53 50 73 53 50 73 53 50 73 53 50 73 53 50 73 53 50 73 53 50 73 53 50 73 53 50 73 53 50 73 53 50 73 53 50 73 53 50 73 53 50 73 53 50 73 53 50 73 53 50 73 53 50 73 53 50 73 53 50 73 53 50 73 53 50 73 53 50 73 53 50 73 53 50 73 53 50 73 53 50 73 53 50 73 53 50 73 53 50 255 250 247 255 250 247 255 250 247 255 250 247 255 250 247 255 250 247 255 250 247 255 250 247 255 250 247 255 250 247 255 250 247 255 250 247 184 154 104 255 250 247 255 250 247 184 154 104 184 154 104 184 154 104 251 246 242 251 246 242 251 246 242 251 246 242 251 246 242 251 246 242 251 246 242 251 246 242 251 246 242 251 246 242 251 246 242 251 246 242
251 246 242 251 246 242 251 246 242 251 246 242 251 246 242 251 246 242 251 246 242 251 246 242 251 246 242 251 246 242 251 246 242 251 246 242 184 154 104 184 154 104 184 154 104 255 250 247 255 250 247 255 250 247 255 250 247 255 250 247 255 250 247 255 250 247 255 250 247 255 250 247 255 250 247 255 250 247 255 250 247 255 250 247 255 250 247 255 250 247 255 250 247 255 250 247 255 250 247 255 250 247 73 53 50 73 53 50 73 53 50 73 53 50 73 53 50 73 53 50 73 53 50 73 53 50 73 53 50 73 53 50 73 53 50 73 53 50 73 53 50 73 53 50 73 53 50 73 53 50 73 53 50 73 53 50 73 53 50 73 53 50 73 53 50 73 53 50 73 53 50 73 53 50 73 53 50 73 53 50 73 53 50 73 53 50 73 53 50 73 53 50 73 53 50 73 53 50 255 250 247 255 250 247 255 250 247 255 250 247 255 250 247 255 250 247 255 250 247 255 250 247 255 250 247 255 250 247 255 250 247 255 250 247 184 154 104 255 250 247 255 250 247 255 250 247 184 154 104 184 154 104 184 154 104 251 246 242 251 246 242 251 246 242 251 246 242 251 246 242 251 246 242 251 246 242 251 246 242 251 246 242 251 246 242 251 246 242
251 246 242 251 246 242 251 246 242 251 246 242 251 246 242 251 246 242 251 246 242 251 246 242 251 246 242 251 246 242 251 246 242 251 246 242 184 154 104 184 154 104 255 250 247 255 250 247 255 250 247 255 250 247 255 250 247 255 250 247 255 250 247 255 250 247 255 250 247 255 250 247 255 250 247 255 250 247 255 250 247 255 250 247 255 250 247 255 250 247 255 250 247 255 250 247 255 250 247 255 250 247 73 53 50 73 53 50 73 53 50 73 53 50 73 53 50 73 53 50 73 53 50 73 53 50 73 53 50 73 53 50 73 53 50 73 53 50 73 53 50 73 53 50 73 53 50 73 53 50 73 53 50 73 53 50 73 53 50 73 53 50 73 53 50 73 53 50 73 53 50 73 53 50 73 53 50 73 53 50 73 53 50 73 53 50 73 53 50 73 53 50 73 53 50 73 53 50 255 250 247 255 250 247 255 250 247 255 250 247 255 250 247 255 250 247 255 250 247 255 250 247 255 250 247 255 250 247 255 250 247 255 250 247 184 154 104 255 250 247 255 250 247 255 250 247 255 250 247 184 154 104 184 154 104 251 246 242 251 246 242 251 246 242 251 246 242 251 246 242 251 246 242 251 246 242 251 246 242 251 246 242 251 246 242 251 246 242
251 246 242 251 246 242 251 246 242 251 246 242 251 246 242 251 246 242 251 246 242 251 246 242 251 246 242 251 246 242 251 246 242 184 154 104 184 154 104 255 250 247 255 250 247 255 250 247 255 250 247 255 250 247 255 250 247 255 250 247 255 250 247 255 250 247 255 250 247 255 250 247 255 250 247 255 250 247 255 250 247 255 250 247 255 250 247 255 250 247 255 250 247 255 250 247 255 250 247 255 250 247 73 53 50 73 53 50 73 53 50 73 53 50 73 53 50 73 53 50 73 53 50 73 53 50 73 53 50 73 53 50 73 53 50 73 53 50 73 53 50 73 53 50 73 53 50 73 53 50 73 53 50 73 53 50 73 53 50 73 53 50 73 53 50 73 53 50 73 53 50 73 53 50 73 53 50 73 53 50 73 53 50 73 53 50 73 53 50 73 53 50 73 53 50 73 53 50 255 250 247 255 250 247 255 250 247 255 250 247 255 250 247 255 250 247 255 250 247 255 250 247 255 250 247 255 250 247 255 250 247 255 250 247 184 154 104 255 250 247 255 250 247 255 250 247 255 250 247 255 250 247 184 154 104 184 154 104 251 246 242 251 246 242 251 246 242 251 246 242 251 246 242 251 246 242 251 246 242 251 246 242 251 246 242 251 246 242
251 246 242 251 246 242 251 246 242 251 246 242 251 246 242 251 246 242 251 246 242 251 246 242 251 246 242 251 246 242 184 154 104 184 154 104 184 154 104 255 250 247 255 250 247 255 250 247 255 250 247 255 250 247 255 250 247 255 250 247 255 250 247 255 250 247 255 250 247 255 250 247 255 250 247 255 250 247 255 250 247 255 250 247 255 250 247 255 250 247 255 250 247 255 250 247 255 250 247 255 250 247 255 250 247 255 250 247 255 250 247 255 250 247 73 53 50 73 53 50 73 53 50 73 53 50 73 53 50 73 53 50 73 53 50 73 53 50 73 53 50 73 53 50 73 53 50 73 53 50 73 53 50 73 53 50 73 53 50 73 53 50 73 53 50 73 53 50 73 53 50 73 53 50 73 53 50 73 53 50 73 53 50 73 53 50 73 53 50 73 53 50 73 53 50 73 53 50 255 250 247 255 250 247 255 250 247 255 250 247 255 250 247 255 250 247 255 250 247 255 250 247 255 250 247 255 250 247 255 250 247 255 250 247 184 154 104 255 250 247 255 250 247 255 250 247 255 250 247 255 250 247 184 154 104 184 154 104 184 154 104 251 246 242 251 246 242 251 246 242 251 246 242 251 246 242 251 246 242 251 246 242 251 246 242 251 246 242
251 246 242 251 246 242 251 246 242 251 246 242 251 246 242 251 246 242 251 246 242 251 246 242 251 246 242 251 246 242 184 154 104 184 154 104 255 250 247 255 250 247 255 250 247 255 250 247 255 250 247 255 250 247 255 250 247 255 250 247 255 250 247 255 250 247 255 250 247 255 250 247 255 250 247 255 250 247 255 250 247 255 250 247 255 250 247 255 250 247 255 250 247 255 250 247 255 250 247 255 250 247 255 250 247 255 250 247 255 250 247 255 250 247 73 53 50 73 53 50 73 53 50 73 53 50 73 53 50 255 250 247 255 250 247 255 250 247 255 250 247 255 250 247 255 250 247 255 250 247 255 250 247 255 250 247 255 250 247 255 250 247 255 250 247 255 250 247 255 250 247 255 250 247 255 250 247 255 250 247 255 250 247 255 250 247 255 250 247 255 250 247 255 250 247 255 250 247 255 250 247 255 250 247 255 250 247 255 250 247 255 250 247 255 250 247 255 250 247 255 250 247 255 250 247 255 250 247 255 250 247 255 250 247 184 154 104 255 250 247 255 250 247 255 250 247 255 250 247 255 250 247 255 250 247 184 154 104 184 154 104 251 246 242 251 246 242 251 246 242 251 246 242 251 246 242 251 246 242 251 246 242 251 246 242 251 246 242
251 246 242 251 246 242 251 246 242 251 246 242 251 246 242 251 246 242 251 246 242 251 246 242 251 246 242 184 154 104 184 154 104 184 154 104 255 250 247 255 250 247 255 250 247 255 250 247 255 250 247 255 250 247 255 250 247 255 250 247 255 250 247 255 250 247 255 250 247 255 250 247 255 250 247 255 250 247 255 250 247 255 250 247 255 250 247 255 250 247 255 250 247 255 250 247 255 250 247 255 250 247 255 250 247 255 250 247 255 250 247 255 250 247 73 53 50 73 53 50 73 53 50 73 53 50 73 53 50 255 250 247 255 250 247 255 250 247 255 250 247 255 250 247 255 250 247 255 250 247 255 250 247 255 250 247 255 250 247 255 250 247 255 250 247 255 250 247 255 250 247 255 250 247 255 250 247 255 250 247 255 250 247 255 250 247 255 250 247 255 250 247 255 250 247 255 250 247 255 250 247 255 250 247 255 250 247 255 250 247 255 250 247 255 250 247 255 250 247 255 250 247 255 250 247 255 250 247 255 250 247 255 250 247 184 154 104 255 250 247 255 250 247 255 250 247 255 250 247 255 250 247 255 250 247 184 154 104 184 154 104 184 154 104 251 246 242 251 246 242 251 246 242 251 246 242 251 246 242 251 246 242 251 246 242 251 246 242
251 246 242 251 246 242 251 246 242 251 246 242 251 246 242 251 246 242 251 246 242 251 246 242 251 246 242 184 154 104 184 154 104 255 250 247 255 250 247 255 250 247 255 250 247 255 250 247 255 250 247 255 250 247 255 250 247 255 250 247 255 250 247 255 250 247 255 250 247 255 250 247 255 250 247 255 250 247 255 250 247 255 250 247 255 250 247 255 250 247 255 250 247 255 250 247 255 250 247 255 250 247 255 250 247 255 250 247 255 250 247 255 250 247 73 53 50 73 53 50 73 53 50 73 53 50 73 53 50 255 250 247 255 250 247 255 250 247 255 250 247 255 250 247 255 250 247 255 250 247 255 250 247 255 250 247 255 250 247 255 250 247 255 250 247 255 250 247 255 250 247 255 250 247 255 250 247 255 250 247 255 250 247 255 250 247 255 250 247 255 250 247 255 250 247 255 250 247 255 250 247 255 250 247 255 250 247 255 250 247 255 250 247 255 250 247 255 250 247 255 250 247 255 250 247 255 250 247 255 250 247 255 250 247 184 154 104 255 250 247 255 250 247 255 250 247 255 250 247 255 250 247 255 250 247 255 250 247 184 154 104 184 154 104 251 246 242 251 246 242 251 246 242 251 246 242 251 246 242 251 246 242 251 246 242 251 246 242
251 246 242 251 246 242 251 246 242 251 246 242 251 246 242 251 246 242 251 246 242 251 246 242 184 154 104 184 154 104 184 154 104 255 250 247 255 250 247 255 250 247 255 250 247 255 250 247 255 250 247 255 250 247 255 250 247 255 250 247 255 250 247 255 250 247 255 250 247 255 250 247 255 250 247 255 250 247 255 250 247 255 250 247 255 250 247 255 250 247 255 250 247 255 250 247 255 250 247 255 250 247 255 250 247 255 250 247 255 250 247 255 250 247 73 53 50 73 53 50 73 53 50 73 53 50 73 53 50 255 250 247 255 250 247 255 250 247 255 250 247 255 250 247 255 250 247 255 250 247 255 250 247 255 250 247 255 250 247 255 250 247 255 250 247 255 250 247 255 250 247 255 250 247 255 250 247 255 250 247 255 250 247 255 250 247 255 250 247 255 250 247 255 250 247 255 250 247 255 250 247 255 250 247 255 250 247 255 250 247 255 250 247 255 250 247 255 250 247 255 250 247 255 250 247 255 250 247 255 250 247 255 250 247 184 154 104 255 250 247 255 250 247 255 250 247 255 250 247 255 250 247 255 250 247 255 250 247 184 154 104 184 154 104 184 154 104 251 246 242 251 246 242 251 246 242 251 246 242 251 246 242 251 246 242 251 246 242
251 246 242 251 246 242 251 246 242 251 246 242 251 246 242 251 246 242 251 246 242 251 246 242 184 154 104 184 154 104 255 250 247 255 250 247 255 250 247 255 250 247 255 250 247 255 250 247 255 250 247 255 250 247 255 250 247 255 250 247 255 250 247 255 250 247 255 250 247 255 250 247 255 250 247 255 250 247 255 250 247 255 250 247 255 250 247 255 250 247 255 250 247 255 250 247 255 250 247 255 250 247 255 250 247 255 250 247 255 250 247 255 250 247 73 53 50 73 53 50 73 53 50 73 53 50 73 53 50 255 250 247 255 250 247 255 250 247 255 250 247 255 250 247 255 250 247 255 250 247 255 250 247 255 250 247 255 250 247 255 250 247 255 250 247 255 250 247 255 250 247 255 250 247 255 250 247 255 250 247 255 250 247 255 250 247 255 250 247 255 250 247 255 250 247 255 250 247 255 250 247 255 250 247 255 250 247 255 250 247 255 250 247 255 250 247 255 250 247 255 250 247 255 250 247 255 250 247 255 250 247 255 250 247 184 154 104 255 250 247 255 250 247 255 250 247 255 250 247 255 250 247 255 250 247 255 250 247 255 250 247 184 154 104 184 154 104 251 246 242 251 246 242 251 246 242 251 246 242 251 246 242 251 246 242 251 246 242
251 246 242 251 246 242 251 246 242 251 246 242 251 246 242 251 246 242 251 246 242 251 246 242 184 154 104 184 154 104 255 250 247 255 250 247 255 250 247 255 250 247 255 250 247 255 250 247 255 250 247 255 250 247 255 250 247 255 250 247 255 250 247 255 250 247 255 250 247 255 250 247 255 250 247 255 250 247 255 250 247 255 250 247 255 250 247 255 250 247 255 250 247 255 250 247 255 250 247 255 250 247 255 250 247 255 250 247 255 250 247 255 250 247 73 53 50 73 53 50 73 53 50 73 53 50 73 53 50 255 250 247 255 250 247 255 250 247 255 250 247 255 250 247 255 250 247 255 250 247 255 250 247 255 250 247 255 250 247 255 250 247 255 250 247 255 250 247 255 250 247 255 250 247 255 250 247 255 250 247 255 250 247 255 250 247 255 250 247 255 250 247 255 250 247 255 250 247 255 250 247 255 250 247 255 250 247 255 250 247 255 250 247 255 250 247 255 250 247 255 250 247 255 250 247 255 250 247 255 250 247 255 250 247 184 154 104 255 250 247 255 250 247 255 250 247 255 250 247 255 250 247 255 250 247 255 250 247 255 250 247 184 154 104 184 154 104 251 246 242 251 246 242 251 246 242 251 246 242 251 246 242 251 246 242 251 246 242
251 246 242 251 246 242 251 246 242 251 246 242 251 246 242 251 246 242 251 246 242 184 154 104 184 154 104 255 250 247 255 250 247 255 250 247 255 250 247 255 250 247 255 250 247 255 250 247 255 250 247 255 250 247 255 250 247 255 250 247 255 250 247 255 250 247 255 250 247 255 250 247 255 250 247 255 250 247 255 250 247 255 250 247 255 250 247 255 250 247 255 250 247 255 250 247 255 250 247 255 250 247 255 250 247 255 250 247 255 250 247 255 250 247 73 53 50 73 53 50 73 53 50 73 53 50 73 53 50 255 250 247 255 250 247 255 250 247 255 250 247 255 250 247 255 250 247 255 250 247 255 250 247 255 250 247 255 250 247 255 250 247 255 250 247 255 250 247 255 250 247 255 250 247 255 250 247 255 250 247 255 250 247 255 250 247 255 250 247 255 250 247 255 250 247 255 250 247 255 250 247 255 250 247 255 250 247 255 250 247 255 250 247 255 250 247 255 250 247 255 250 247 255 250 247 255 250 247 255 250 247 255 250 247 255 250 247 255 250 247 255 250 247 255 250 247 255 250 247 255 250 247 255 250 247 255 250 247 255 250 247 255 250 247 184 154 104 184 154 104 251 246 242 251 246 242 251 246 242 251 246 242 251 246 242 251 246 242
251 246 242 251 246 242 251 246 242 251 246 242 251 246 242 251 246 242 251 246 242 184 154 104 184 154 104 255 250 247 255 250 247 255 250 247 255 250 247 255 250 247 255 250 247 255 250 247 255 250 247 255 250 247 255 250 247 255 250 247 255 250 247 255 250 247 255 250 247 255 250 247 255 250 247 255 250 247 255 250 247 255 250 247 255 250 247 255 250 247 255 250 247 255 250 247 255 250 247 255 250 247 255 250 247 255 250 247 255 250 247 255 250 247 73 53 50 73 53 50 73 53 50 73 53 50 73 53 50 255 250 247 255 250 247 255 250 247 255 250 247 255 250 247 255 250 247 255 250 247 255 250 247 255 250 247 255 250 247 255 250 247 255 250 247 255 250 247 255 250 247 255 250 247 255 250 247 255 250 247 255 250 247 255 250 247 255 250 247 255 250 247 255 250 247 255 250 247 255 250 247 255 250 247 255 250 247 255 250 247 255 250 247 255 250 247 255 250 247 255 250 247 255 250 247 255 250 247 255 250 247 255 250 247 255 250 247 255 250 247 255 250 247 255 250 247 255 250 247 255 250 247 255 250 247 255 250 247 255 250 247 255 250 247 184 154 104 184 154 104 251 246 242 251 246 242 251 246 242 251 246 242 251 246 242 251 246 242
251 246 242 251 246 242 251 246 242 251 246 242 251 246 242 251 246 242 184 154 104 184 154 104 184 154 104 255 250 247 255 250 247 255 250 247 255 250 247 255 250 247 255 250 247 255 250 247 255 250 247 255 250 247 255 250 247 255 250 247 255 250 247 255 250 247 255 250 247 255 250 247 255 250 247 255 250 247 255 250 247 255 250 247 255 250 247 255 250 247 255 250 247 255 250 247 255 250 247 255 250 247 255 250 247 255 250 247 255 250 247 73 53 50 73 53 50 73 53 50 73 53 50 73 53 50 255 250 247 255 250 247 255 250 247 255 250 247 255 250 247 255 250 247 255 250 247 255 250 247 255 250 247 255 250 247 255 250 247 255 250 247 255 250 247 255 250 247 255 250 247 255 250 247 255 250 247 255 250 247 255 250 247 255 250 247 255 250 247 255 250 247 255 250 247 255 250 247 255 250 247 255 250 247 255 250 247 255 250 247 255 250 247 255 250 247 255 250 247 255 250 247 255 250 247 255 250 247 255 250 247 255 250 247 255 250 247 255 250 247 255 250 247 255 250 247 255 250 247 255 250 247 255 250 247 255 250 247 255 250 247 255 250 247 184 154 104 184 154 104 184 154 104 251 246 242 251 246 242 251 246 242 251 246 242 251 246 242
251 246 242 251 246 242 251 246 242 251 246 242 251 246 242 251 246 242 184 154 104 184 154 104 255 250 247 255 250 247 255 250 247 255 250 247 255 250 247 255 250 247 255 250 247 255 250 247 255 250 247 255 250 247 255 250 247 255 250 247 255 250 247 255 250 247 255 250 247 255 250 247 255 250 247 255 250 247 255 250 247 255 250 247 255 250 247 255 250 247 255 250 247 255 250 247 255 250 247 255 250 247 255 250 247 255 250 247 255 250 247 73 53 50 73 53 50 73 53 50 73 53 50 73 53 50 255 250 247 255 250 247 255 250 247 255 250 247 255 250 247 255 250 247 255 250 247 255 250 247 255 250 247 255 250 247 255 250 247 255 250 247 255 250 247 255 250 247 255 250 247 255 250 247 255 250 247 255 250 247 255 250 247 255 250 247 255 250 247 255 250 247 255 250 247 255 250 247 255 250 247 255 250 247 255 250 247 255 250 247 255 250 247 255 250 247 255 250 247 255 250 247 255 250 247 255 250 247 255 250 247 255 250 247 255 250 247 255 250 247 255 250 247 255 250 247 255 250 247 255 250 247 255 250 247 255 250 247 255 250 247 255 250 247 255 250 247 184 154 104 184 154 104 251 246 242 251 246 242 251 246 242 251 246 242 251 246 242
251 246 242 251 246 242 251 246 242 251 246 242 251 246 242 251 246 242 184 154 104 184 154 104 255 250 247 255 250 247 255 250 247 255 250 247 255 250 247 255 250 247 255 250 247 255 250 247 255 250 247 255 250 247 255 250 247 255 250 247 255 250 247 255 250 247 255 250 247 255 250 247 255 250 247 255 250 247 255 250 247 255 250 247 255 250 247 255 250 247 255 250 247 255 250 247 255 250 247 255 250 247 255 250 247 255 250 247 255 250 247 73 53 50 73 53 50 73 53 50 73 53 50 73 53 50 255 250 247 255 250 247 255 250 247 255 250 247 255 250 247 255 250 247 255 250 247 255 250 247 255 250 247 255 250 247 255 250 247 255 250 247 255 250 247 255 250 247 255 250 247 255 250 247 255 250 247 255 250 247 255 250 247 255 250 247 255 250 247 255 250 247 255 250 247 255 250 247 255 250 247 255 250 247 255 250 247 255 250 247 255 250 247 255 250 247 255 250 247 255 250 247 255 250 247 255 250 247 255 250 247 255 250 247 255 250 247 255 250 247 255 250 247 255 250 247 255 250 247 255 250 247 255 250 247 255 250 247 255 250 247 255 250 247 255 250 247 184 154 104 184 154 104 251 246 242 251 246 242 251 246 242 251 246 242 251 246 242
251 246 242 251 246 242 251 246 242 251 246 242 251 246 242 251 246 242 184 154 104 184 154 104 255 250 247 255 250 247 255 250 247 255 250 247 255 250 247 255 250 247 255 250 247 255 250 247 255 250 247 255 250 247 255 250 247 255 250 247 255 250 247 255 250 247 255 250 247 255 250 247 255 250 247 255 250 247 255 250 247 255 250 247 255 250 247 255 250 247 255 250 247 255 250 247 255 250 247 255 250 247 255 250 247 255 250 247 255 250 247 73 53 50 73 53 50 73 53 50 73 53 50 73 53 50 255 250 247 255 250 247 255 250 247 255 250 247 255 250 247 255 250 247 255 250 247 255 250 247 255 250 247 255 250 247 255 250 247 255 250 247 255 250 247 255 250 247 255 250 247 255 250 247 255 250 247 255 250 247 255 250 247 255 250 247 255 250 247 255 250 247 255 250 247 255 250 247 255 250 247 255 250 247 255 250 247 255 250 247 255 250 247 255 250 247 255 250 247 255 250 247 255 250 247 255 250 247 255 250 247 255 250 247 255 250 247 255 250 247 255 250 247 255 250 247 255 250 247 255 250 247 255 250 247 255 250 247 255 250 247 255 250 247 255 250 247 184 154 104 184 154 104 251 246 242 251 246 242 251 246 242 251 246 242 251 246 242
251 246 242 251 246 242 251 246 242 251 246 242 251 246 242 184 154 104 184 154 104 255 250 247 255 250 247 255 250 247 255 250 247 255 250 247 255 250 247 255 250 247 255 250 247 255 250 247 255 250 247 255 250 247 255 250 247 255 250 247 255 250 247 255 250 247 255 250 247 255 250 247 255 250 247 255 250 247 255 250 247 255 250 247 255 250 247 255 250 247 255 250 247 255 250 247 255 250 247 255 250 247 255 250 247 255 250 247 255 250 247 73 53 50 73 53 50 73 53 50 73 53 50 73 53 50 255 250 247 255 250 247 255 250 247 255 250 247 255 250 247 255 250 247 255 250 247 255 250 247 255 250 247 255 250 247 255 250 247 255 250 247 255 250 247 255 250 247 255 250 247 255 250 247 255 250 247 255 250 247 255 250 247 255 250 247 255 250 247 255 250 247 255 250 247 255 250 247 255 250 247 255 250 247 255 250 247 255 250 247 255 250 247 255 250 247 255 250 247 255 250 247 255 250 247 255 250 247 255 250 247 255 250 247 255 250 247 255 250 247 255 250 247 255 250 247 255 250 247 255 250 247 255 250 247 255 250 247 255 250 247 255 250 247 255 250 247 255 250 247 184 154 104 184 154 104 251 246 242 251 246 242 251 246 242 251 246 242
251 246 242 251 246 242 251 246 242 251 246 242 251 246 242 184 154 104 184 154 104 255 250 247 255 250 247 255 250 247 255 250 247 255 250 247 255 250 247 255 250 247 255 250 247 255 250 247 255 250 247 255 250 247 255 250 247 255 250 247 255 250 247 255 250 247 255 250 247 255 250 247 255 250 247 255 250 247 255 250 247 255 250 247 255 250 247 255 250 247 255 250 247 255 250 247 255 250 247 255 250 247 255 250 247 255 250 247 255 250 247 73 53 50 73 53 50 73 53 50 73 53 50 73 53 50 255 250 247 255 250 247 255 250 247 255 250 247 255 250 247 255 250 247 255 250 247 255 250 247 255 250 247 255 250 247 255 250 247 255 250 247 255 250 247 255 250 247 255 250 247 255 250 247 255 250 247 255 250 247 255 250 247 255 250 247 255 250 247 255 250 247 255 250 247 255 250 247 255 250 247 255 250 247 255 250 247 255 250 247 255 250 247 255 250 247 255 250 247 255 250 247 255 250 247 255 250 247 255 250 247 255 250 247 255 250 247 255 250 247 255 250 247 255 250 247 255 250 247 255 250 247 255 250 247 255 250 247 255 250 247 255 250 247 255 250 247 255 250 247 184 154 104 184 154 104 251 246 242 251 246 242 251 246 242 251 246 242
251 246 242 251 246 242 251 246 242 251 246 242 251 246 242 184 154 104 184 154 104 255 250 247 255 250 247 255 250 247 255 250 247 255 250 247 255 250 247 255 250 247 255 250 247 255 250 247 255 250 247 255 250 247 255 250 247 255 250 247 255 250 247 255 250 247 255 250 247 255 250 247 255 250 247 255 250 247 255 250 247 255 250 247 255 250 247 255 250 247 255 250 247 255 250 247 255 250 247 255 250 247 255 250 247 255 250 247 255 250 247 73 53 50 73 53 50 73 53 50 73 53 50 73 53 50 255 250 247 255 250 247 255 250 247 255 250 247 255 250 247 255 250 247 255 250 247 255 250 247 255 250 247 255 250 247 255 250 247 255 250 247 255 250 247 255 250 247 255 250 247 255 250 247 255 250 247 255 250 247 255 250 247 255 250 247 255 250 247 255 250 247 255 250 247 255 250 247 255 250 247 255 250 247 255 250 247 255 250 247 255 250 247 255 250 247 255 250 247 255 250 247 255 250 247 255 250 247 255 250 247 255 250 247 255 250 247 255 250 247 255 250 247 255 250 247 255 250 247 255 250 247 255 250 247 255 250 247 255 250 247 255 250 247 255 250 247 255 250 247 184 154 104 184 154 104 251 246 242 251 246 242 251 246 242 251 246 242
251 246 242 251 246 242 251 246 242 251 246 242 251 246 242 184 154 104 184 154 104 255 250 247 255 250 247 255 250 247 255 250 247 255 250 247 255 250 247 255 250 247 255 250 247 255 250 247 255 250 247 255 250 247 255 250 247 255 250 247 255 250 247 255 250 247 255 250 247 255 250 247 255 250 247 255 250 247 255 250 247 255 250 247 255 250 247 255 250 247 255 250 247 255 250 247 255 250 247 255 250 247 255 250 247 255 250 247 255 250 247 73 53 50 73 53 50 73 53 50 73 53 50 73 53 50 255 250 247 255 250 247 255 250 247 255 250 247 255 250 247 255 250 247 255 250 247 255 250 247 255 250 247 255 250 247 255 250 247 255 250 247 255 250 247 255 250 247 255 250 247 255 250 247 255 250 247 255 250 247 255 250 247 255 250 247 255 250 247 255 250 247 255 250 247 255 250 247 255 250 247 255 250 247 255 250 247 255 250 247 255 250 247 255 250 247 255 250 247 255 250 247 255 250 247 255 250 247 255 250 247 255 250 247 255 250 247 255 250 247 255 250 247 255 250 247 255 250 247 255 250 247 255 250 247 255 250 247 255 250 247 255 250 247 255 250 247 255 250 247 184 154 104 184 154 104 251 246 242 251 246 242 251 246 242 251 246 242
251 246 242 251 246 242 251 246 242 251 246 242 251 246 242 184 154 104 184 154 104 255 250 247 255 250 247 255 250 247 255 250 247 255 250 247 255 250 247 255 250 247 255 250 247 255 250 247 255 250 247 255 250 247 255 250 247 255 250 247 255 250 247 255 250 247 255 250 247 255 250 247 255 250 247 255 250 247 255 250 247 255 250 247 255 250 247 255 250 247 255 250 247 255 250 247 255 250 247 255 250 247 255 250 247 255 250 247 255 250 247 73 53 50 73 53 50 73 53 50 73 53 50 73 53 50 255 250 247 255 250 247 255 250 247 255 250 247 255 250 247 255 250 247 255 250 247 255 250 247 255 250 247 255 250 247 255 250 247 255 250 247 255 250 247 255 250 247 255 250 247 255 250 247 255 250 247 255 250 247 255 250 247 255 250 247 255 250 247 255 250 247 255 250 247 255 250 247 255 250 247 255 250 247 255 250 247 255 250 247 255 250 247 255 250 247 255 250 247 255 250 247 255 250 247 255 250 247 255 250 247 255 250 247 255 250 247 255 250 247 255 250 247 255 250 247 255 250 247 255 250 247 255 250 247 255 250 247 255 250 247 255 250 247 255 250 247 255 250 247 184 154 104 184 154 104 251 246 242 251 246 242 251 246 242 251 246 242
251 246 242 251 246 242 251 246 242 251 246 242 251 246 242 184 154 104 184 154 104 255 250 247 255 250 247 255 250 247 255 250 247 255 250 247 255 250 247 255 250 247 255 250 247 255 250 247 255 250 247 255 250 247 255 250 247 255 250 247 255 250 247 255 250 247 255 250 247 255 250 247 255 250 247 255 250 247 255 250 247 255 250 247 255 250 247 255 250 247 255 250 247 255 250 247 255 250 247 255 250 247 255 250 247 255 250 247 255 250 247 73 53 50 73 53 50 73 53 50 73 53 50 73 53 50 255 250 247 255 250 247 255 250 247 255 250 247 255 250 247 255 250 247 255 250 247 255 250 247 255 250 247 255 250 247 255 250 247 255 250 247 255 250 247 255 250 247 255 250 247 255 250 247 255 250 247 255 250 247 255 250 247 255 250 247 255 250 247 255 250 247 255 250 247 255 250 247 255 250 247 255 250 247 255 250 247 255 250 247 255 250 247 255 250 247 255 250 247 255 250 247 255 250 247 255 250 247 255 250 247 255 250 247 255 250 247 255 250 247 255 250 247 255 250 247 255 250 247 255 250 247 255 250 247 255 250 247 255 250 247 255 250 247 255 250 247 255 250 247 184 154 104 184 154 104 251 246 242 251 246 242 251 246 242 251 246 242
251 246 242 251 246 242 251 246 242 251 246 242 251 246 242 184 154 104 184 154 104 255 250 247 255 250 247 255 250 247 255 250 247 255 250 247 255 250 247 255 250 247 255 250 247 255 250 247 255 250 247 255 250 247 255 250 247 255 250 247 255 250 247 255 250 247 255 250 247 255 250 247 255 250 247 255 250 247 255 250 247 255 250 247 255 250 247 255 250 247 255 250 247 255 250 247 255 250 247 255 250 247 255 250 247 255 250 247 255 250 247 73 53 50 73 53 50 73 53 50 73 53 50 73 53 50 255 250 247 255 250 247 255 250 247 255 250 247 255 250 247 255 250 247 255 250 247 255 250 247 255 250 247 255 250 247 255 250 247 255 250 247 255 250 247 255 250 247 255 250 247 255 250 247 255 250 247 255 250 247 255 250 247 255 250 247 255 250 247 255 250 247 255 250 247 255 250 247 255 250 247 255 250 247 255 250 247 255 250 247 255 250 247 255 250 247 255 250 247 255 250 247 255 250 247 255 250 247 255 250 247 255 250 247 255 250 247 255 250 247 255 250 247 255 250 247 255 250 247 255 250 247 255 250 247 255 250 247 255 250 247 255 250 247 255 250 247 255 250 247 184 154 104 184 154 104 251 246 242 251 246 242 251 246 242 251 246 242
251 246 242 251 246 242 251 246 242 251 246 242 251 246 242 184 154 104 184 154 104 255 250 247 255 250 247 255 250 247 255 250 247 255 250 247 255 250 247 255 250 247 255 250 247 255 250 247 255 250 247 255 250 247 255 250 247 255 250 247 255 250 247 255 250 247 255 250 247 255 250 247 255 250 247 255 250 247 255 250 247 255 250 247 255 250 247 255 250 247 255 250 247 255 250 247 255 250 247 255 250 247 255 250 247 255 250 247 255 250 247 73 53 50 73 53 50 73 53 50 73 53 50 73 53 50 73 53 50 73 53 50 73 53 50 73 53 50 73 53 50 73 53 50 73 53 50 73 53 50 73 53 50 73 53 50 73 53 50 73 53 50 73 53 50 73 53 50 73 53 50 73 53 50 73 53 50 73 53 50 255 250 247 255 250 247 255 250 247 255 250 247 255 250 247 255 250 247 255 250 247 255 250 247 255 250 247 255 250 247 255 250 247 255 250 247 255 250 247 255 250 247 255 250 247 255 250 247 255 250 247 255 250 247 255 250 247 255 250 247 255 250 247 255 250 247 255 250 247 255 250 247 255 250 247 255 250 247 255 250 247 255 250 247 255 250 247 255 250 247 184 154 104 184 154 104 251 246 242 251 246 242 251 246 242 251 246 242
251 246 242 251 246 242 251 246 242 251 246 242 251 246 242 184 154 104 184 154 104 255 250 247 255 250 247 255 250 247 255 250 247 255 250 247 255 250 247 255 250 247 255 250 247 255 250 247 255 250 247 255 250 247 255 250 247 255 250 247 255 250 247 255 250 247 255 250 247 255 250 247 255 250 247 255 250 247 255 250 247 255 250 247 255 250 247 255 250 247 255 250 247 255 250 247 255 250 247 255 250 247 255 250 247 255 250 247 73 53 50 73 53 50 73 53 50 73 53 50 73 53 50 73 53 50 73 53 50 73 53 50 73 53 50 73 53 50 73 53 50 73 53 50 73 53 50 73 53 50 73 53 50 73 53 50 73 53 50 73 53 50 73 53 50 73 53 50 73 53 50 73 53 50 73 53 50 73 53 50 255 250 247 255 250 247 255 250 247 255 250 247 255 250 247 255 250 247 255 250 247 255 250 247 255 250 247 255 250 247 255 250 247 255 250 247 255 250 247 255 250 247 255 250 247 255 250 247 255 250 247 255 250 247 255 250 247 255 250 247 255 250 247 255 250 247 255 250 247 255 250 247 255 250 247 255 250 247 255 250 247 255 250 247 255 250 247 255 250 247 184 154 104 184 154 104 251 246 242 251 246 242 251 246 242 251 246 242
251 246 242 251 246 242 251 246 242 251 246 242 251 246 242 184 154 104 255 250 247 255 250 247 255 250 247 255 250 247 255 250 247 255 250 247 255 250 247 255 250 247 255 250 247 255 250 247 255 250 247 255 250 247 255 250 247 255 250 247 255 250 247 255 250 247 255 250 247 255 250 247 255 250 247 255 250 247 255 250 247 255 250 247 255 250 247 255 250 247 255 250 247 255 250 247 255 250 247 255 250 247 255 250 247 255 250 247 73 53 50 73 53 50 73 53 50 73 53 50 73 53 50 73 53 50 73 53 50 73 53 50 73 53 50 73 53 50 73 53 50 73 53 50 73 53 50 73 53 50 73 53 50 73 53 50 73 53 50 73 53 50 73 53 50 73 53 50 73 53 50 73 53 50 73 53 50 73 53 50 255 250 247 255 250 247 255 250 247 255 250 247 255 250 247 255 250 247 255 250 247 255 250 247 255 250 247 255 250 247 255 250 247 255 250 247 255 250 247 255 250 247 255 250 247 255 250 247 255 250 247 255 250 247 255 250 247 255 250 247 255 250 247 255 250 247 255 250 247 255 250 247 255 250 247 255 250 247 255 250 247 255 250 247 255 250 247 255 250 247 255 250 247 184 154 104 251 246 242 251 246 242 251 246 242 251 246 242
251 246 242 251 246 242 251 246 242 251 246 242 251 246 242 184 154 104 184 154 104 255 250 247 255 250 247 255 250 247 255 250 247 255 250 247 255 250 247 255 250 247 255 250 247 255 250 247 255 250 247 255 250 247 255 250 247 255 250 247 255 250 247 255 250 247 255 250 247 255 250 247 255 250 247 255 250 247 255 250 247 255 250 247 255 250 247 255 250 247 255 250 247 255 250 247 255 250 247 255 250 247 255 250 247 255 250 247 73 53 50 73 53 50 73 53 50 73 53 50 73 53 50 73 53 50 73 53 50 73 53 50 73 53 50 73 53 50 73 53 50 73 53 50 73 53 50 73 53 50 73 53 50 73 53 50 73 53 50 73 53 50 73 53 50 73 53 50 73 53 50 73 53 50 73 53 50 73 53 50 255 250 247 255 250 247 255 250 247 255 250 247 255 250 247 255 250 247 255 250 247 255 250 247 255 250 247 255 250 247 255 250 247 255 250 247 255 250 247 255 250 247 255 250 247 255 250 247 255 250 247 255 250 247 255 250 247 255 250 247 255 250 247 255 250 247 255 250 247 255 250 247 255 250 247 255 250 247 255 250 247 255 250 247 255 250 247 255 250 247 184 154 104 184 154 104 251 246 242 251 246 242 251 246 242 251 246 242
251 246 242 251 246 242 251 246 242 251 246 242 251 246 242 184 154 104 184 154 104 255 250 247 255 250 247 255 250 247 255 250 247 255 250 247 255 250 247 255 250 247 255 250 247 255 250 247 255 250 247 255 250 247 255 250 247 255 250 247 255 250 247 255 250 247 255 250 247 255 250 247 255 250 247 255 250 247 255 250 247 255 250 247 255 250 247 255 250 247 255 250 247 255 250 247 255 250 247 255 250 247 255 250 247 255 250 247 73 53 50 73 53 50 73 53 50 73 53 50 73 53 50 73 53 50 73 53 50 73 53 50 73 53 50 73 53 50 73 53 50 73 53 50 73 53 50 73 53 50 73 53 50 73 53 50 73 53 50 73 53 50 73 53 50 73 53 50 73 53 50 73 53 50 73 53 50 73 53 50 255 250 247 255 250 247 255 250 247 255 250 247 255 250 247 255 250 247 255 250 247 255 250 247 255 250 247 255 250 247 255 250 247 255 250 247 255 250 247 255 250 247 255 250 247 255 250 247 255 250 247 255 250 247 255 250 247 255 250 247 255 250 247 255 250 247 255 250 247 255 250 247 255 250 247 255 250 247 255 250 247 255 250 247 255 250 247 255 250 247 184 154 104 184 154 104 251 246 242 251 246 242 251 246 242 251 246 242
251 246 242 251 246 242 251 246 242 251 246 242 251 246 242 184 154 104 184 154 104 255 250 247 255 250 247 255 250 247 255 250 247 255 250 247 255 250 247 255 250 247 255 250 247 255 250 247 255 250 247 255 250 247 255 250 247 255 250 247 255 250 247 255 250 247 255 250 247 255 250 247 255 250 247 255 250 247 255 250 247 255 250 247 255 250 247 255 250 247 255 250 247 255 250 247 255 250 247 255 250 247 255 250 247 255 250 247 73 53 50 73 53 50 73 53 50 73 53 50 73 53 50 255 250 247 255 250 247 255 250 247 255 250 247 255 250 247 255 250 247 255 250 247 255 250 247 255 250 247 255 250 247 255 250 247 255 250 247 255 250 247 255 250 247 255 250 247 255 250 247 255 250 247 255 250 247 255 250 247 255 250 247 255 250 247 255 250 247 255 250 247 255 250 247 255 250 247 255 250 247 255 250 247 255 250 247 255 250 247 255 250 247 255 250 247 255 250 247 255 250 247 255 250 247 255 250 247 255 250 247 255 250 247 255 250 247 255 250 247 255 250 247 255 250 247 255 250 247 255 250 247 255 250 247 255 250 247 255 250 247 255 250 247 255 250 247 255 250 247 184 154 104 184 154 104 251 246 242 251 246 242 251 246 242 251 246 242
251 246 242 251 246 242 251 246 242 251 246 242 251 246 242 184 154 104 184 154 104 255 250 247 255 250 247 255 250 247 255 250 247 255 250 247 255 250 247 255 250 247 255 250 247 255 250 247 255 250 247 255 250 247 255 250 247 255 250 247 255 250 247 255 250 247 255 250 247 255 250 247 255 250 247 255 250 247 255 250 247 255 250 247 255 250 247 255 250 247 255 250 247 255 250 247 255 250 247 255 250 247 255 250 247 255 250 247 73 53 50 73 53 50 73 53 50 73 53 50 73 53 50 255 250 247 255 250 247 255 250 247 255 250 247 255 250 247 255 250 247 255 250 247 255 250 247 255 250 247 255 250 247 255 250 247 255 250 247 255 250 247 255 250 247 255 250 247 255 250 247 255 250 247 255 250 247 255 250 247 255 250 247 255 250 247 255 250 247 255 250 247 255 250 247 255 250 247 255 250 247 255 250 247 255 250 247 255 250 247 255 250 247 255 250 247 255 250 247 255 250 247 255 250 247 255 250 247 255 250 247 255 250 247 255 250 247 255 250 247 255 250 247 255 250 247 255 250 247 255 250 247 255 250 247 255 250 247 255 250 247 255 250 247 255 250 247 255 250 247 184 154 104 184 154 104 251 246 242 251 246 242 251 246 242 251 246 242
251 246 242 251 246 242 251 246 242 251 246 242 251 246 242 184 154 104 184 154 104 255 250 247 255 250 247 255 250 247 255 250 247 255 250 247 255 250 247 255 250 247 255 250 247 255 250 247 255 250 247 255 250 247 255 250 247 255 250 247 255 250 247 255 250 247 255 250 247 255 250 247 255 250 247 255 250 247 255 250 247 255 250 247 255 250 247 255 250 247 255 250 247 255 250 247 255 250 247 255 250 247 255 250 247 255 250 247 73 53 50 73 53 50 73 53 50 73 53 50 73 53 50 255 250 247 255 250 247 255 250 247 255 250 247 255 250 247 255 250 247 255 250 247 255 250 247 255 250 247 255 250 247 255 250 247 255 250 247 255 250 247 255 250 247 255 250 247 255 250 247 255 250 247 255 250 247 255 250 247 255 250 247 255 250 247 255 250 247 255 250 247 255 250 247 255 250 247 255 250 247 255 250 247 255 250 247 255 250 247 255 250 247 255 250 247 255 250 247 255 250 247 255 250 247 255 250 247 255 250 247 255 250 247 255 250 247 255 250 247 255 250 247 255 250 247 255 250 247 255 250 247 255 250 247 255 250 247 255 250 247 255 250 247 255 250 247 255 250 247 184 154 104 184 154 104 251 246 242 251 246 242 251 246 242 251 246 242
251 246 242 251 246 242 251 246 242 251 246 242 251 246 242 184 154 104 184 154 104 255 250 247 255 250 247 255 250 247 255 250 247 255 250 247 255 250 247 255 250 247 255 250 247 255 250 247 255 250 247 255 250 247 255 250 247 255 250 247 255 250 247 255 250 247 255 250 247 255 250 247 255 250 247 255 250 247 255 250 247 255 250 247 255 250 247 255 250 247 255 250 247 255 250 247 255 250 247 255 250 247 255 250 247 255 250 247 73 53 50 73 53 50 73 53 50 73 53 50 73 53 50 255 250 247 255 250 247 255 250 247 255 250 247 255 250 247 255 250 247 255 250 247 255 250 247 255 250 247 255 250 247 255 250 247 255 250 247 255 250 247 255 250 247 255 250 247 255 250 247 255 250 247 255 250 247 255 250 247 255 250 247 255 250 247 255 250 247 255 250 247 255 250 247 255 250 247 255 250 247 255 250 247 255 250 247 255 250 247 255 250 247 255 250 247 255 250 247 255 250 247 255 250 247 255 250 247 255 250 247 255 250 247 255 250 247 255 250 247 255 250 247 255 250 247 255 250 247 255 250 247 255 250 247 255 250 247 255 250 247 255 250 247 255 250 247 255 250 247 184 154 104 184 154 104 251 246 242 251 246 242 251 246 242 251 246 242
251 246 242 251 246 242 251 246 242 251 246 242 251 246 242 184 154 104 184 154 104 255 250 247 255 250 247 255 250 247 255 250 247 255 250 247 255 250 247 255 250 247 255 250 247 255 250 247 255 250 247 255 250 247 255 250 247 255 250 247 255 250 247 255 250 247 255 250 247 255 250 247 255 250 247 255 250 247 255 250 247 255 250 247 255 250 247 255 250 247 255 250 247 255 250 247 255 250 247 255 250 247 255 250 247 255 250 247 73 53 50 73 53 50 73 53 50 73 53 50 73 53 50 255 250 247 255 250 247 255 250 247 255 250 247 255 250 247 255 250 247 255 250 247 255 250 247 255 250 247 255 250 247 255 250 247 255 250 247 255 250 247 255 250 247 255 250 247 255 250 247 255 250 247 255 250 247 255 250 247 255 250 247 255 250 247 255 250 247 255 250 247 255 250 247 255 250 247 255 250 247 255 250 247 255 250 247 255 250 247 255 250 247 255 250 247 255 250 247 255 250 247 255 250 247 255 250 247 255 250 247 255 250 247 255 250 247 255 250 247 255 250 247 255 250 247 255 250 247 255 250 247 255 250 247 255 250 247 255 250 247 255 250 247 255 250 247 255 250 247 184 154 104 184 154 104 251 246 242 251 246 242 251 246 242 251 246 242
251 246 242 251 246 242 251 246 242 251 246 242 251 246 242 184 154 104 184 154 104 255 250 247 255 250 247 255 250 247 255 250 247 255 250 247 255 250 247 255 250 247 255 250 247 255 250 247 255 250 247 255 250 247 255 250 247 255 250 247 255 250 247 255 250 247 255 250 247 255 250 247 255 250 247 255 250 247 255 250 247 255 250 247 255 250 247 255 250 247 255 250 247 255 250 247 255 250 247 255 250 247 255 250 247 255 250 247 73 53 50 73 53 50 73 53 50 73 53 50 73 53 50 255 250 247 255 250 247 255 250 247 255 250 247 255 250 247 255 250 247 255 250 247 255 250 247 255 250 247 255 250 247 255 250 247 255 250 247 255 250 247 255 250 247 255 250 247 255 250 247 255 250 247 255 250 247 255 250 247 255 250 247 255 250 247 255 250 247 255 250 247 255 250 247 255 250 247 255 250 247 255 250 247 255 250 247 255 250 247 255 250 247 255 250 247 255 250 247 255 250 247 255 250 247 255 250 247 255 250 247 255 250 247 255 250 247 255 250 247 255 250 247 255 250 247 255 250 247 255 250 247 255 250 247 255 250 247 255 250 247 255 250 247 255 250 247 255 250 247 184 154 104 184 154 104 251 246 242 251 246 242 251 246 242 251 246 242
251 246 242 251 246 242 251 246 242 251 246 242 251 246 242 184 154 104 184 154 104 255 250 247 255 250 247 255 250 247 255 250 247 255 250 247 255 250 247 255 250 247 255 250 247 255 250 247 255 250 247 255 250 247 255 250 247 255 250 247 255 250 247 255 250 247 255 250 247 255 250 247 255 250 247 255 250 247 255 250 247 255 250 247 255 250 247 255 250 247 255 250 247 255 250 247 255 250 247 255 250 247 255 250 247 255 250 247 73 53 50 73 53 50 73 53 50 73 53 50 73 53 50 255 250 247 255 250 247 255 250 247 255 250 247 255 250 247 255 250 247 255 250 247 255 250 247 255 250 247 255 250 247 255 250 247 255 250 247 255 250 247 255 250 247 255 250 247 255 250 247 255 250 247 255 250 247 255 250 247 255 250 247 255 250 247 255 250 247 255 250 247 255 250 247 255 250 247 255 250 247 255 250 247 255 250 247 255 250 247 255 250 247 255 250 247 255 250 247 255 250 247 255 250 247 255 250 247 255 250 247 255 250 247 255 250 247 255 250 247 255 250 247 255 250 247 255 250 247 255 250 247 255 250 247 255 250 247 255 250 247 255 250 247 255 250 247 255 250 247 184 154 104 184 154 104 251 246 242 251 246 242 251 246 242 251 246 242
251 246 242 251 246 242 251 246 242 251 246 242 251 246 242 251 246 242 184 154 104 184 154 104 255 250 247 255 250 247 255 250 247 255 250 247 255 250 247 255 250 247 255 250 247 255 250 247 255 250 247 255 250 247 255 250 247 255 250 247 255 250 247 255 250 247 255 250 247 255 250 247 255 250 247 255 250 247 255 250 247 255 250 247 255 250 247 255 250 247 255 250 247 255 250 247 255 250 247 255 250 247 255 250 247 255 250 247 73 53 50 73 53 50 73 53 50 73 53 50 73 53 50 255 250 247 255 250 247 255 250 247 255 250 247 255 250 247 255 250 247 255 250 247 255 250 247 255 250 247 255 250 247 255 250 247 255 250 247 255 250 247 255 250 247 255 250 247 255 250 247 255 250 247 255 250 247 255 250 247 255 250 247 255 250 247 255 250 247 255 250 247 255 250 247 255 250 247 255 250 247 255 250 247 255 250 247 255 250 247 255 250 247 255 250 247 255 250 247 255 250 247 255 250 247 255 250 247 255 250 247 255 250 247 255 250 247 255 250 247 255 250 247 255 250 247 255 250 247 255 250 247 255 250 247 255 250 247 255 250 247 255 250 247 255 250 247 184 154 104 184 154 104 251 246 242 251 246 242 251 246 242 251 246 242 251 246 242
251 246 242 251 246 242 251 246 242 251 246 242 251 246 242 251 246 242 184 154 104 184 154 104 255 250 247 255 250 247 255 250 247 255 250 247 255 250 247 255 250 247 255 250 247 255 250 247 255 250 247 255 250 247 255 250 247 255 250 247 255 250 247 255 250 247 255 250 247 255 250 247 255 250 247 255 250 247 255 250 247 255 250 247 255 250 247 255 250 247 255 250 247 255 250 247 255 250 247 255 250 247 255 250 247 255 250 247 73 53 50 73 53 50 73 53 50 73 53 50 73 53 50 255 250 247 255 250 247 255 250 247 255 250 247 255 250 247 255 250 247 255 250 247 255 250 247 255 250 247 255 250 247 255 250 247 255 250 247 255 250 247 255 250 247 255 250 247 255 250 247 255 250 247 255 250 247 255 250 247 255 250 247 255 250 247 255 250 247 255 250 247 255 250 247 255 250 247 255 250 247 255 250 247 255 250 247 255 250 247 255 250 247 255 250 247 255 250 247 255 250 247 255 250 247 255 250 247 255 250 247 255 250 247 255 250 247 255 250 247 255 250 247 255 250 247 255 250 247 255 250 247 255 250 247 255 250 247 255 250 247 255 250 247 255 250 247 184 154 104 184 154 104 251 246 242 251 246 242 251 246 242 251 246 242 251 246 242
251 246 242 251 246 242 251 246 242 251 246 242 251 246 242 251 246 242 184 154 104 184 154 104 255 250 247 255 250 247 255 250 247 255 250 247 255 250 247 255 250 247 255 250 247 255 250 247 255 250 247 255 250 247 255 250 247 255 250 247 255 250 247 255 250 247 255 250 247 255 250 247 255 250 247 255 250 247 255 250 247 255 250 247 255 250 247 255 250 247 255 250 247 255 250 247 255 250 247 255 250 247 255 250 247 73 53 50 73 53 50 73 53 50 73 53 50 73 53 50 255 250 247 255 250 247 255 250 247 255 250 247 255 250 247 255 250 247 255 250 247 255 250 247 255 250 247 255 250 247 255 250 247 255 250 247 255 250 247 255 250 247 255 250 247 255 250 247 255 250 247 255 250 247 255 250 247 255 250 247 255 250 247 255 250 247 255 250 247 255 250 247 255 250 247 255 250 247 255 250 247 255 250 247 255 250 247 255 250 247 255 250 247 255 250 247 255 250 247 255 250 247 255 250 247 255 250 247 255 250 247 255 250 247 255 250 247 255 250 247 255 250 247 255 250 247 255 250 247 255 250 247 255 250 247 255 250 247 255 250 247 255 250 247 255 250 247 184 154 104 184 154 104 251 246 242 251 246 242 251 246 242 251 246 242 251 246 242
251 246 242 251 246 242 251 246 242 251 246 242 251 246 242 251 246 242 184 154 104 184 154 104 184 154 104 255 250 247 255 250 247 255 250 247 255 250 247 255 250 247 255 250 247 255 250 247 255 250 247 255 250 247 255 250 247 255 250 247 255 250 247 255 250 247 255 250 247 255 250 247 255 250 247 255 250 247 255 250 247 255 250 247 255 250 247 255 250 247 255 250 247 255 250 247 255 250 247 255 250 247 255 250 247 73 53 50 73 53 50 73 53 50 73 53 50 73 53 50 255 250 247 255 250 247 255 250 247 255 250 247 255 250 247 255 250 247 255 250 247 255 250 247 255 250 247 255 250 247 255 250 247 255 250 247 255 250 247 255 250 247 255 250 247 255 250 247 255 250 247 255 250 247 255 250 247 255 250 247 255 250 247 255 250 247 255 250 247 255 250 247 255 250 247 255 250 247 255 250 247 255 250 247 255 250 247 255 250 247 255 250 247 255 250 247 255 250 247 255 250 247 255 250 247 255 250 247 255 250 247 255 250 247 255 250 247 255 250 247 255 250 247 255 250 247 255 250 247 255 250 247 255 250 247 255 250 247 255 250 247 255 250 247 184 154 104 184 154 104 184 154 104 251 246 242 251 246 242 251 246 242 251 246 242 251 246 242
251 246 242 251 246 242 251 246 242 251 246 242 251 246 242 251 246 242 251 246 242 184 154 104 184 154 104 255 250 247 255 250 247 255 250 247 255 250 247 255 250 247 255 250 247 255 250 247 255 250 247 255 250 247 255 250 247 255 250 247 255 250 247 255 250 247 255 250 247 255 250 247 255 250 247 255 250 247 255 250 247 255 250 247 255 250 247 255 250 247 255 250 247 255 250 247 255 250 247 255 250 247 255 250 247 73 53 50 73 53 50 73 53 50 73 53 50 73 53 50 255 250 247 255 250 247 255 250 247 255 250 247 255 250 247 255 250 247 255 250 247 255 250 247 255 250 247 255 250 247 255 250 247 255 250 247 255 250 247 255 250 247 255 250 247 255 250 247 255 250 247 255 250 247 255 250 247 255 250 247 255 250 247 255 250 247 255 250 247 255 250 247 255 250 247 255 250 247 255 250 247 255 250 247 255 250 247 255 250 247 255 250 247 255 250 247 255 250 247 255 250 247 255 250 247 255 250 247 255 250 247 255 250 247 255 250 247 255 250 247 255 250 247 255 250 247 255 250 247 255 250 247 255 250 247 255 250 247 255 250 247 255 250 247 184 154 104 184 154 104 251 246 242 251 246 242 251 246 242 251 246 242 251 246 242 251 246 242
251 246 242 251 246 242 251 246 242 251 246 242 251 246 242 251 246 242 251 246 242 184 154 104 184 154 104 255 250 247 255 250 247 255 250 247 255 250 247 255 250 247 255 250 247 255 250 247 255 250 247 255 250 247 255 250 247 255 250 247 255 250 247 255 250 247 255 250 247 255 250 247 255 250 247 255 250 247 255 250 247 255 250 247 255 250 247 255 250 247 255 250 247 255 250 247 255 250 247 255 250 247 255 250 247 73 53 50 73 53 50 73 53 50 73 53 50 73 53 50 255 250 247 255 250 247 255 250 247 255 250 247 255 250 247 255 250 247 255 250 247 255 250 247 255 250 247 255 250 247 255 250 247 255 250 247 255 250 247 255 250 247 255 250 247 255 250 247 255 250 247 255 250 247 255 250 247 255 250 247 255 250 247 255 250 247 255 250 247 255 250 247 255 250 247 255 250 247 255 250 247 255 250 247 255 250 247 255 250 247 255 250 247 255 250 247 255 250 247 255 250 247 255 250 247 255 250 247 255 250 247 255 250 247 255 250 247 255 250 247 255 250 247 255 250 247 255 250 247 255 250 247 255 250 247 255 250 247 255 250 247 255 250 247 184 154 104 184 154 104 251 246 242 251 246 242 251 246 242 251 246 242 251 246 242 251 246 242
251 246 242 251 246 242 251 246 242 251 246 242 251 246 242 251 246 242 251 246 242 251 246 242 184 154 104 184 154 104 255 250 247 255 250 247 255 250 247 255 250 247 255 250 247 255 250 247 255 250 247 255 250 247 255 250 247 255 250 247 255 250 247 255 250 247 255 250 247 255 250 247 255 250 247 255 250 247 255 250 247 255 250 247 255 250 247 255 250 247 255 250 247 255 250 247 255 250 247 255 250 247 255 250 247 73 53 50 73 53 50 73 53 50 73 53 50 73 53 50 255 250 247 255 250 247 255 250 247 255 250 247 255 250 247 255 250 247 255 250 247 255 250 247 255 250 247 255 250 247 255 250 247 255 250 247 255 250 247 255 250 247 255 250 247 255 250 247 255 250 247 255 250 247 255 250 247 255 250 247 255 250 247 255 250 247 255 250 247 255 250 247 255 250 247 255 250 247 255 250 247 255 250 247 255 250 247 255 250 247 255 250 247 255 250 247 255 250 247 255 250 247 255 250 247 255 250 247 255 250 247 255 250 247 255 250 247 255 250 247 255 250 247 255 250 247 255 250 247 255 250 247 255 250 247 255 250 247 255 250 247 184 154 104 184 154 104 251 246 242 251 246 242 251 246 242 251 246 242 251 246 242 251 246 242 251 246 242
251 246 242 251 246 242 251 246 242 251 246 242 251 246 242 251 246 242 251 246 242 251 246 242 184 154 104 184 154 104 255 250 247 255 250 247 255 250 247 255 250 247 255 250 247 255 250 247 255 250 247 255 250 247 255 250 247 255 250 247 255 250 247 255 250 247 255 250 247 255 250 247 255 250 247 255 250 247 255 250 247 255 250 247 255 250 247 255 250 247 255 250 247 255 250 247 255 250 247 255 250 247 255 250 247 73 53 50 73 53 50 73 53 50 73 53 50 73 53 50 255 250 247 255 250 247 255 250 247 255 250 247 255 250 247 255 250 247 255 250 247 255 250 247 255 250 247 255 250 247 255 250 247 255 250 247 255 250 247 255 250 247 255 250 247 255 250 247 255 250 247 255 250 247 255 250 247 255 250 247 255 250 247 255 250 247 255 250 247 255 250 247 255 250 247 255 250 247 255 250 247 255 250 247 255 250 247 255 250 247 255 250 247 255 250 247 255 250 247 255 250 247 255 250 247 255 250 247 255 250 247 255 250 247 255 250 247 255 250 247 255 250 247 255 250 247 255 250 247 255 250 247 255 250 247 255 250 247 255 250 247 184 154 104 184 154 104 251 246 242 251 246 242 251 246 242 251 246 242 251 246 242 251 246 242 251 246 242
251 246 242 251 246 242 251 246 242 251 246 242 251 246 242 251 246 242 251 246 242 251 246 242 184 154 104 184 154 104 184 154 104 255 250 247 255 250 247 255 250 247 255 250 247 255 250 247 255 250 247 255 250 247 255 250 247 255 250 247 255 250 247 255 250 247 255 250 247 255 250 247 255 250 247 255 250 247 255 250 247 255 250 247 255 250 247 255 250 247 255 250 247 255 250 247 255 250 247 255 250 247 255 250 247 73 53 50 73 53 50 73 53 50 73 53 50 73 53 50 255 250 247 255 250 247 255 250 247 255 250 247 255 250 247 255 250 247 255 250 247 255 250 247 255 250 247 255 250 247 255 250 247 255 250 247 255 250 247 255 250 247 255 250 247 255 250 247 255 250 247 255 250 247 255 250 247 255 250 247 255 250 247 255 250 247 255 250 247 255 250 247 255 250 247 255 250 247 255 250 247 255 250 247 255 250 247 255 250 247 255 250 247 255 250 247 255 250 247 255 250 247 255 250 247 255 250 247 255 250 247 255 250 247 255 250 247 255 250 247 255 250 247 255 250 247 255 250 247 255 250 247 255 250 247 255 250 247 184 154 104 184 154 104 184 154 104 251 246 242 251 246 242 251 246 242 251 246 242 251 246 242 251 246 242 251 246 242
251 246 242 251 246 242 251 246 242 251 246 242 251 246 242 251 246 242 251 246 242 251 246 242 251 246 242 184 154 104 184 154 104 255 250 247 255 250 247 255 250 247 255 250 247 255 250 247 255 250 247 255 250 247 255 250 247 255 250 247 255 250 247 255 250 247 255 250 247 255 250 247 255 250 247 255 250 247 255 250 247 255 250 247 255 250 247 255 250 247 255 250 247 255 250 247 255 250 247 255 250 247 255 250 247 73 53 50 73 53 50 73 53 50 73 53 50 73 53 50 255 250 247 255 250 247 255 250 247 255 250 247 255 250 247 255 250 247 255 250 247 255 250 247 255 250 247 255 250 247 255 250 247 255 250 247 255 250 247 255 250 247 255 250 247 255 250 247 255 250 247 255 250 247 255 250 247 255 250 247 255 250 247 255 250 247 255 250 247 255 250 247 255 250 247 255 250 247 255 250 247 255 250 247 255 250 247 255 250 247 255 250 247 255 250 247 255 250 247 255 250 247 255 250 247 255 250 247 255 250 247 255 250 247 255 250 247 255 250 247 255 250 247 255 250 247 255 250 247 255 250 247 255 250 247 255 250 247 184 154 104 184 154 104 251 246 242 251 246 242 251 246 242 251 246 242 251 246 242 251 246 242 251 246 242 251 246 242
251 246 242 251 246 242 251 246 242 251 246 242 251 246 242 251 246 242 251 246 242 251 246 242 251 246 242 184 154 104 184 154 104 184 154 104 255 250 247 255 250 247 255 250 247 255 250 247 255 250 247 255 250 247 255 250 247 255 250 247 255 250 247 255 250 247 255 250 247 255 250 247 255 250 247 255 250 247 255 250 247 255 250 247 255 250 247 255 250 247 255 250 247 255 250 247 255 250 247 255 250 247 255 250 247 73 53 50 73 53 50 73 53 50 73 53 50 73 53 50 255 250 247 255 250 247 255 250 247 255 250 247 255 250 247 255 250 247 255 250 247 255 250 247 255 250 247 255 250 247 255 250 247 255 250 247 255 250 247 255 250 247 255 250 247 255 250 247 255 250 247 255 250 247 255 250 247 255 250 247 255 250 247 255 250 247 255 250 247 255 250 247 255 250 247 255 250 247 255 250 247 255 250 247 255 250 247 255 250 247 255 250 247 255 250 247 255 250 247 255 250 247 255 250 247 255 250 247 255 250 247 255 250 247 255 250 247 255 250 247 255 250 247 255 250 247 255 250 247 255 250 247 255 250 247 184 154 104 184 154 104 184 154 104 251 246 242 251 246 242 251 246 242 251 246 242 251 246 242 251 246 242 251 246 242 251 246 242
251 246 242 251 246 242 251 246 242 251 246 242 251 246 242 251 246 242 251 246 242 251 246 242 251 246 242 251 246 242 184 154 104 184 154 104 255 250 247 255 250 247 255 250 247 255 250 247 255 250 247 255 250 247 255 250 247 255 250 247 255 250 247 255 250 247 255 250 247 255 250 247 255 250 247 255 250 247 255 250 247 255 250 247 255 250 247 255 250 247 255 250 247 255 250 247 255 250 247 255 250 247 255 250 247 73 53 50 73 53 50 73 53 50 73 53 50 73 53 50 255 250 247 255 250 247 255 250 247 255 250 247 255 250 247 255 250 247 255 250 247 255 250 247 255 250 247 255 250 247 255 250 247 255 250 247 255 250 247 255 250 247 255 250 247 255 250 247 255 250 247 255 250 247 255 250 247 255 250 247 255 250 247 255 250 247 255 250 247 255 250 247 255 250 247 255 250 247 255 250 247 255 250 247 255 250 247 255 250 247 255 250 247 255 250 247 255 250 247 255 250 247 255 250 247 255 250 247 255 250 247 255 250 247 255 250 247 255 250 247 255 250 247 255 250 247 255 250 247 255 250 247 255 250 247 184 154 104 184 154 104 251 246 242 251 246 242 251 246 242 251 246 242 251 246 242 251 246 242 251 246 242 251 246 242 251 246 242
251 246 242 251 246 242 251 246 242 251 246 242 251 246 242 251 246 242 251 246 242 251 246 242 251 246 242 251 246 242 184 154 104 184 154 104 184 154 104 255 250 247 255 250 247 255 250 247 255 250 247 255 250 247 255 250 247 255 250 247 255 250 247 255 250 247 255 250 247 255 250 247 255 250 247 255 250 247 255 250 247 255 250 247 255 250 247 255 250 247 255 250 247 255 250 247 255 250 247 255 250 247 255 250 247 73 53 50 73 53 50 73 53 50 73 53 50 73 53 50 73 53 50 73 53 50 73 53 50 73 53 50 73 53 50 73 53 50 73 53 50 73 53 50 73 53 50 73 53 50 73 53 50 73 53 50 73 53 50 73 53 50 73 53 50 73 53 50 73 53 50 73 53 50 73 53 50 73 53 50 73 53 50 73 53 50 73 53 50 73 53 50 73 53 50 73 53 50 255 250 247 255 250 247 255 250 247 255 250 247 255 250 247 255 250 247 255 250 247 255 250 247 255 250 247 255 250 247 255 250 247 255 250 247 255 250 247 255 250 247 255 250 247 255 250 247 255 250 247 255 250 247 184 154 104 184 154 104 184 154 104 251 246 242 251 246 242 251 246 242 251 246 242 251 246 242 251 246 242 251 246 242 251 246 242 251 246 242
251 246 242 251 246 242 251 246 242 251 246 242 251 246 242 251 246 242 251 246 242 251 246 242 251 246 242 251 246 242 251 246 242 184 154 104 184 154 104 255 250 247 255 250 247 255 250 247 255 250 247 255 250 247 255 250 247 255 250 247 255 250 247 255 250 247 255 250 247 255 250 247 255 250 247 255 250 247 255 250 247 255 250 247 255 250 247 255 250 247 255 250 247 255 250 247 255 250 247 255 250 247 73 53 50 73 53 50 73 53 50 73 53 50 73 53 50 73 53 50 73 53 50 73 53 50 73 53 50 73 53 50 73 53 50 73 53 50 73 53 50 73 53 50 73 53 50 73 53 50 73 53 50 73 53 50 73 53 50 73 53 50 73 53 50 73 53 50 73 53 50 73 53 50 73 53 50 73 53 50 73 53 50 73 53 50 73 53 50 73 53 50 73 53 50 73 53 50 255 250 247 255 250 247 255 250 247 255 250 247 255 250 247 255 250 247 255 250 247 255 250 247 255 250 247 255 250 247 255 250 247 255 250 247 255 250 247 255 250 247 255 250 247 255 250 247 255 250 247 255 250 247 184 154 104 184 154 104 251 246 242 251 246 242 251 246 242 251 246 242 251 246 242 251 246 242 251 246 242 251 246 242 251 246 242 251 246 242
251 246 242 251 246 242 251 246 242 251 246 242 251 246 242 251 246 242 251 246 242 251 246 242 251 246 242 251 246 242 251 246 242 251 246 242 184 154 104 184 154 104 255 250 247 255 250 247 255 250 247 255 250 247 255 250 247 255 250 247 255 250 247 255 250 247 255 250 247 255 250 247 255 250 247 255 250 247 255 250 247 255 250 247 255 250 247 255 250 247 255 250 247 255 250 247 255 250 247 255 250 247 73 53 50 73 53 50 73 53 50 73 53 50 73 53 50 73 53 50 73 53 50 73 53 50 73 53 50 73 53 50 73 53 50 73 53 50 73 53 50 73 53 50 73 53 50 73 53 50 73 53 50 73 53 50 73 53 50 73 53 50 73 53 50 73 53 50 73 53 50 73 53 50 73 53 50 73 53 50 73 53 50 73 53 50 73 53 50 73 53 50 73 53 50 73 53 50 255 250 247 255 250 247 255 250 247 255 250 247 255 250 247 255 250 247 255 250 247 255 250 247 255 250 247 255 250 247 255 250 247 255 250 247 255 250 247 255 250 247 255 250 247 255 250 247 255 250 247 184 154 104 184 154 104 251 246 242 251 246 242 251 246 242 251 246 242 251 246 242 251 246 242 251 246 242 251 246 242 251 246 242 251 246 242 251 246 242
251 246 242 251 246 242 251 246 242 251 246 242 251 246 242 251 246 242 251 246 242 251 246 242 251 246 242 251 246 242 251 246 242 251 246 242 184 154 104 184 154 104 184 154 104 255 250 247 255 250 247 255 250 247 255 250 247 255 250 247 255 250 247 255 250 247 255 250 247 255 250 247 255 250 247 255 250 247 255 250 247 255 250 247 255 250 247 255 250 247 255 250 247 255 250 247 255 250 247 255 250 247 73 53 50 73 53 50 73 53 50 73 53 50 73 53 50 73 53 50 73 53 50 73 53 50 73 53 50 73 53 50 73 53 50 73 53 50 73 53 50 73 53 50 73 53 50 73 53 50 73 53 50 73 53 50 73 53 50 73 53 50 73 53 50 73 53 50 73 53 50 73 53 50 73 53 50 73 53 50 73 53 50 73 53 50 73 53 50 73 53 50 73 53 50 73 53 50 255 250 247 255 250 247 255 250 247 255 250 247 255 250 247 255 250 247 255 250 247 255 250 247 255 250 247 255 250 247 255 250 247 255 250 247 255 250 247 255 250 247 255 250 247 255 250 247 184 154 104 184 154 104 184 154 104 251 246 242 251 246 242 251 246 242 251 246 242 251 246 242 251 246 242 251 246 242 251 246 242 251 246 242 251 246 242 251 246 242
251 246 242 251 246 242 251 246 242 251 246 242 251 246 242 251 246 242 251 246 242 251 246 242 251 246 242 251 246 242 251 246 242 251 246 242 251 246 242 184 154 104 184 154 104 184 154 104 255 250 247 255 250 247 255 250 247 255 250 247 255 250 247 255 250 247 255 250 247 255 250 247 255 250 247 255 250 247 255 250 247 255 250 247 255 250 247 255 250 247 255 250 247 255 250 247 255 250 247 255 250 247 73 53 50 73 53 50 73 53 50 73 53 50 73 53 50 73 53 50 73 53 50 73 53 50 73 53 50 73 53 50 73 53 50 73 53 50 73 53 50 73 53 50 73 53 50 73 53 50 73 53 50 73 53 50 73 53 50 73 53 50 73 53 50 73 53 50 73 53 50 73 53 50 73 53 50 73 53 50 73 53 50 73 53 50 73 53 50 73 53 50 73 53 50 73 53 50 255 250 247 255 250 247 255 250 247 255 250 247 255 250 247 255 250 247 255 250 247 255 250 247 255 250 247 255 250 247 255 250 247 255 250 247 255 250 247 255 250 247 255 250 247 184 154 104 184 154 104 184 154 104 251 246 242 251 246 242 251 246 242 251 246 242 251 246 242 251 246 242 251 246 242 251 246 242 251 246 242 251 246 242 251 246 242 251 246 242
251 246 242 251 246 242 251 246 242 251 246 242 251 246 242 251 246 242 251 246 242 251 246 242 251 246 242 251 246 242 251 246 242 251 246 242 251 246 242 251 246 242 184 154 104 184 154 104 255 250 247 255 250 247 255 250 247 255 250 247 255 250 247 255 250 247 255 250 247 255 250 247 255 250 247 255 250 247 255 250 247 255 250 247 255 250 247 255 250 247 255 250 247 255 250 247 255 250 247 255 250 247 73 53 50 73 53 50 73 53 50 73 53 50 73 53 50 73 53 50 73 53 50 73 53 50 255 250 247 255 250 247 255 250 247 255 250 247 255 250 247 255 250 247 255 250 247 255 250 247 255 250 247 255 250 247 255 250 247 255 250 247 255 250 247 255 250 247 255 250 247 255 250 247 255 250 247 255 250 247 255 250 247 255 250 247 255 250 247 255 250 247 255 250 247 255 250 247 255 250 247 255 250 247 255 250 247 255 250 247 255 250 247 255 250 247 255 250 247 255 250 247 255 250 247 255 250 247 255 250 247 255 250 247 255 250 247 255 250 247 255 250 247 184 154 104 184 154 104 251 246 242 251 246 242 251 246 242 251 246 242 251 246 242 251 246 242 251 246 242 251 246 242 251 246 242 251 246 242 251 246 242 251 246 242 251 246 242
251 246 242 251 246 242 251 246 242 251 246 242 251 246 242 251 246 242 251 246 242 251 246 242 251 246 242 251 246 242 251 246 242 251 246 242 251 246 242 251 246 242 251 246 242 184 154 104 184 154 104 255 250 247 255 250 247 255 250 247 255 250 247 255 250 247 255 250 247 255 250 247 255 250 247 255 250 247 255 250 247 255 250 247 255 250 247 255 250 247 255 250 247 255 250 247 255 250 247 255 250 247 73 53 50 73 53 50 73 53 50 73 53 50 73 53 50 73 53 50 73 53 50 73 53 50 255 250 247 255 250 247 255 250 247 255 250 247 255 250 247 255 250 247 255 250 247 255 250 247 255 250 247 255 250 247 255 250 247 255 250 247 255 250 247 255 250 247 255 250 247 255 250 247 255 250 247 255 250 247 255 250 247 255 250 247 255 250 247 255 250 247 255 250 247 255 250 247 255 250 247 255 250 247 255 250 247 255 250 247 255 250 247 255 250 247 255 250 247 255 250 247 255 250 247 255 250 247 255 250 247 255 250 247 255 250 247 255 250 247 184 154 104 184 154 104 251 246 242 251 246 242 251 246 242 251 246 242 251 246 242 251 246 242 251 246 242 251 246 242 251 246 242 251 246 242 251 246 242 251 246 242 251 246 242 251 246 242
251 246 242 251 246 242 251 246 242 251 246 242 251 246 242 251 246 242 251 246 242 251 246 242 251 246 242 251 246 242 251 246 242 251 246 242 251 246 242 251 246 242 251 246 242 184 154 104 184 154 104 184 154 104 255 250 247 255 250 247 255 250 247 255 250 247 255 250 247 255 250 247 255 250 247 255 250 247 255 250 247 255 250 247 255 250 247 255 250 247 255 250 247 255 250 247 255 250 247 255 250 247 73 53 50 73 53 50 73 53 50 73 53 50 73 53 50 73 53 50 73 53 50 73 53 50 255 250 247 255 250 247 255 250 247 255 250 247 255 250 247 255 250 247 255 250 247 255 250 247 255 250 247 255 250 247 255 250 247 255 250 247 255 250 247 255 250 247 255 250 247 255 250 247 255 250 247 255 250 247 255 250 247 255 250 247 255 250 247 255 250 247 255 250 247 255 250 247 255 250 247 255 250 247 255 250 247 255 250 247 255 250 247 255 250 247 255 250 247 255 250 247 255 250 247 255 250 247 255 250 247 255 250 247 255 250 247 184 154 104 184 154 104 184 154 104 251 246 242 251 246 242 251 246 242 251 246 242 251 246 242 251 246 242 251 246 242 251 246 242 251 246 242 251 246 242 251 246 242 251 246 242 251 246 242 251 246 242
251 246 242 251 246 242 251 246 242 251 246 242 251 246 242 251 246 242 251 246 242 251 246 242 251 246 242 251 246 242 251 246 242 251 246 242 251 246 242 251 246 242 251 246 242 251 246 242 184 154 104 184 154 104 184 154 104 255 250 247 255 250 247 255 250 247 255 250 247 255 250 247 255 250 247 255 250 247 255 250 247 255 250 247 255 250 247 255 250 247 255 250 247 255 250 247 255 250 247 255 250 247 73 53 50 73 53 50 73 53 50 73 53 50 73 53 50 73 53 50 73 53 50 73 53 50 255 250 247 255 250 247 255 250 247 255 250 247 255 250 247 255 250 247 255 250 247 255 250 247 255 250 247 255 250 247 255 250 247 255 250 247 255 250 247 255 250 247 255 250 247 255 250 247 255 250 247 255 250 247 255 250 247 255 250 247 255 250 247 255 250 247 255 250 247 255 250 247 255 250 247 255 250 247 255 250 247 255 250 247 255 250 247 255 250 247 255 250 247 255 250 247 255 250 247 255 250 247 255 250 247 255 250 247 184 154 104 184 154 104 184 154 104 251 246 242 251 246 242 251 246 242 251 246 242 251 246 242 251 246 242 251 246 242 251 246 242 251 246 242 251 246 242 251 246 242 251 246 242 251 246 242 251 246 242 251 246 242
251 246 242 251 246 242 251 246 242 251 246 242 251 246 242 251 246 242 251 246 242 251 246 242 251 246 242 251 246 242 251 246 242 251 246 242 251 246 242 251 246 242 251 246 242 251 246 242 251 246 242 184 154 104 184 154 104 184 154 104 255 250 247 255 250 247 255 250 247 255 250 247 255 250 247 255 250 247 255 250 247 255 250 247 255 250 247 255 250 247 255 250 247 255 250 247 255 250 247 255 250 247 255 250 247 255 250 247 255 250 247 255 250 247 255 250 247 255 250 247 255 250 247 255 250 247 255 250 247 255 250 247 255 250 247 255 250 247 255 250 247 255 250 247 255 250 247 255 250 247 255 250 247 255 250 247 255 250 247 255 250 247 255 250 247 255 250 247 255 250 247 255 250 247 255 250 247 255 250 247 255 250 247 255 250 247 255 250 247 255 250 247 255 250 247 255 250 247 255 250 247 255 250 247 255 250 247 255 250 247 255 250 247 255 250 247 255 250 247 255 250 247 255 250 247 255 250 247 255 250 247 184 154 104 184 154 104 184 154 104 251 246 242 251 246 242 251 246 242 251 246 242 251 246 242 251 246 242 251 246 242 251 246 242 251 246 242 251 246 242 251 246 242 251 246 242 251 246 242 251 246 242 251 246 242 251 246 242
251 246 242 251 246 242 251 246 242 251 246 242 251 246 242 251 246 242 251 246 242 251 246 242 251 246 242 251 246 242 251 246 242 251 246 242 251 246 242 251 246 242 251 246 242 251 246 242 251 246 242 251 246 242 184 154 104 184 154 104 184 154 104 255 250 247 255 250 247 255 250 247 255 250 247 255 250 247 255 250 247 255 250 247 255 250 247 255 250 247 255 250 247 255 250 247 255 250 247 255 250 247 255 250 247 255 250 247 255 250 247 255 250 247 255 250 247 255 250 247 255 250 247 255 250 247 255 250 247 255 250 247 255 250 247 255 250 247 255 250 247 255 250 247 255 250 247 255 250 247 255 250 247 255 250 247 255 250 247 255 250 247 255 250 247 255 250 247 255 250 247 255 250 247 255 250 247 255 250 247 255 250 247 255 250 247 255 250 247 255 250 247 255 250 247 255 250 247 255 250 247 255 250 247 255 250 247 255 250 247 255 250 247 255 250 247 255 250 247 255 250 247 255 250 247 255 250 247 184 154 104 184 154 104 184 154 104 251 246 242 251 246 242 251 246 242 251 246 242 251 246 242 251 246 242 251 246 242 251 246 242 251 246 242 251 246 242 251 246 242 251 246 242 251 246 242 251 246 242 251 246 242 251 246 242 251 246 242
251 246 242 251 246 242 251 246 242 251 246 242 251 246 242 251 246 242 251 246 242 251 246 242 251 246 242 251 246 242 251 246 242 251 246 242 251 246 242 251 246 242 251 246 242 251 246 242 251 246 242 251 246 242 251 246 242 184 154 104 184 154 104 184 154 104 184 154 104 255 250 247 255 250 247 255 250 247 255 250 247 255 250 247 255 250 247 255 250 247 255 250 247 255 250 247 255 250 247 255 250 247 255 250 247 255 250 247 255 250 247 255 250 247 255 250 247 255 250 247 255 250 247 255 250 247 255 250 247 255 250 247 255 250 247 255 250 247 255 250 247 255 250 247 255 250 247 255 250 247 255 250 247 255 250 247 255 250 247 255 250 247 255 250 247 255 250 247 255 250 247 255 250 247 255 250 247 255 250 247 255 250 247 255 250 247 255 250 247 255 250 247 255 250 247 255 250 247 255 250 247 255 250 247 255 250 247 255 250 247 255 250 247 255 250 247 255 250 247 255 250 247 184 154 104 184 154 104 184 154 104 184 154 104 251 246 242 251 246 242 251 246 242 251 246 242 251 246 242 251 246 242 251 246 242 251 246 242 251 246 242 251 246 242 251 246 242 251 246 242 251 246 242 251 246 242 251 246 242 251 246 242 251 246 242 251 246 242
251 246 242 251 246 242 251 246 242 251 246 242 251 246 242 251 246 242 251 246 242 251 246 242 251 246 242 251 246 242 251 246 242 251 246 242 251 246 242 251 246 242 251 246 242 251 246 242 251 246 242 251 246 242 251 246 242 251 246 242 251 246 242 184 154 104 184 154 104 184 154 104 255 250 247 255 250 247 255 250 247 255 250 247 255 250 247 255 250 247 255 250 247 255 250 247 255 250 247 255 250 247 255 250 247 255 250 247 255 250 247 255 250 247 255 250 247 255 250 247 255 250 247 255 250 247 255 250 247 255 250 247 255 250 247 255 250 247 255 250 247 255 250 247 255 250 247 255 250 247 255 250 247 255 250 247 255 250 247 255 250 247 255 250 247 255 250 247 255 250 247 255 250 247 255 250 247 255 250 247 255 250 247 255 250 247 255 250 247 255 250 247 255 250 247 255 250 247 255 250 247 255 250 247 255 250 247 255 250 247 255 250 247 255 250 247 255 250 247 184 154 104 184 154 104 184 154 104 251 246 242 251 246 242 251 246 242 251 246 242 251 246 242 251 246 242 251 246 242 251 246 242 251 246 242 251 246 242 251 246 242 251 246 242 251 246 242 251 246 242 251 246 242 251 246 242 251 246 242 251 246 242 251 246 242 251 246 242
251 246 242 251 246 242 251 246 242 251 246 242 251 246 242 251 246 242 251 246 242 251 246 242 251 246 242 251 246 242 251 246 242 251 246 242 251 246 242 251 246 242 251 246 242 251 246 242 251 246 242 251 246 242 251 246 242 251 246 242 251 246 242 251 246 242 184 154 104 184 154 104 184 154 104 255 250 247 255 250 247 255 250 247 255 250 247 255 250 247 255 250 247 255 250 247 255 250 247 255 250 247 255 250 247 255 250 247 255 250 247 255 250 247 255 250 247 255 250 247 255 250 247 255 250 247 255 250 247 255 250 247 255 250 247 255 250 247 255 250 247 255 250 247 255 250 247 255 250 247 255 250 247 255 250 247 255 250 247 255 250 247 255 250 247 255 250 247 255 250 247 255 250 247 255 250 247 255 250 247 255 250 247 255 250 247 255 250 247 255 250 247 255 250 247 255 250 247 255 250 247 255 250 247 255 250 247 255 250 247 255 250 247 255 250 247 184 154 104 184 154 104 184 154 104 251 246 242 251 246 242 251 246 242 251 246 242 251 246 242 251 246 242 251 246 242 251 246 242 251 246 242 251 246 242 251 246 242 251 246 242 251 246 242 251 246 242 251 246 242 251 246 242 251 246 242 251 246 242 251 246 242 251 246 242 251 246 242
251 246 242 251 246 242 251 246 242 251 246 242 251 246 242 251 246 242 251 246 242 251 246 242 251 246 242 251 246 242 251 246 242 251 246 242 251 246 242 251 246 242 251 246 242 251 246 242 251 246 242 251 246 242 251 246 242 251 246 242 251 246 242 251 246 242 251 246 242 184 154 104 184 154 104 184 154 104 184 154 104 255 250 247 255 250 247 255 250 247 255 250 247 255 250 247 255 250 247 255 250 247 255 250 247 255 250 247 255 250 247 255 250 247 255 250 247 255 250 247 255 250 247 255 250 247 255 250 247 255 250 247 255 250 247 255 250 247 255 250 247 255 250 247 255 250 247 255 250 247 255 250 247 255 250 247 255 250 247 255 250 247 255 250 247 255 250 247 255 250 247 255 250 247 255 250 247 255 250 247 255 250 247 255 250 247 255 250 247 255 250 247 255 250 247 255 250 247 255 250 247 255 250 247 255 250 247 255 250 247 184 154 104 184 154 104 184 154 104 184 154 104 251 246 242 251 246 242 251 246 242 251 246 242 251 246 242 251 246 242 251 246 242 251 246 242 251 246 242 251 246 242 251 246 242 251 246 242 251 246 242 251 246 242 251 246 242 251 246 242 251 246 242 251 246 242 251 246 242 251 246 242 251 246 242 251 246 242
251 246 242 251 246 242 251 246 242 251 246 242 251 246 242 251 246 242 251 246 242 251 246 242 251 246 242 251 246 242 251 246 242 251 246 242 251 246 242 251 246 242 251 246 242 251 246 242 251 246 242 251 246 242 251 246 242 251 246 242 251 246 242 251 246 242 251 246 242 251 246 242 251 246 242 184 154 104 184 154 104 184 154 104 184 154 104 255 250 247 255 250 247 255 250 247 255 250 247 255 250 247 255 250 247 255 250 247 255 250 247 255 250 247 255 250 247 255 250 247 255 250 247 255 250 247 255 250 247 255 250 247 255 250 247 255 250 247 255 250 247 255 250 247 255 250 247 255 250 247 255 250 247 255 250 247 255 250 247 255 250 247 255 250 247 255 250 247 255 250 247 255 250 247 255 250 247 255 250 247 255 250 247 255 250 247 255 250 247 255 250 247 255 250 247 255 250 247 255 250 247 255 250 247 184 154 104 184 154 104 184 154 104 184 154 104 251 246 242 251 246 242 251 246 242 251 246 242 251 246 242 251 246 242 251 246 242 251 246 242 251 246 242 251 246 242 251 246 242 251 246 242 251 246 242 251 246 242 251 246 242 251 246 242 251 246 242 251 246 242 251 246 242 251 246 242 251 246 242 251 246 242 251 246 242 251 246 242
251 246 242 251 246 242 251 246 242 251 246 242 251 246 242 251 246 242 251 246 242 251 246 242 251 246 242 251 246 242 251 246 242 251 246 242 251 246 242 251 246 242 251 246 242 251 246 242 251 246 242 251 246 242 251 246 242 251 246 242 251 246 242 251 246 242 251 246 242 251 246 242 251 246 242 251 246 242 184 154 104 184 154 104 184 154 104 184 154 104 184 154 104 255 250 247 255 250 247 255 250 247 255 250 247 255 250 247 255 250 247 255 250 247 255 250 247 255 250 247 255 250 247 255 250 247 255 250 247 255 250 247 255 250 247 255 250 247 255 250 247 255 250 247 255 250 247 255 250 247 255 250 247 255 250 247 255 250 247 255 250 247 255 250 247 255 250 247 255 250 247 255 250 247 255 250 247 255 250 247 255 250 247 255 250 247 255 250 247 255 250 247 255 250 247 255 250 247 184 154 104 184 154 104 184 154 104 184 154 104 184 154 104 251 246 242 251 246 242 251 246 242 251 246 242 251 246 242 251 246 242 251 246 242 251 246 242 251 246 242 251 246 242 251 246 242 251 246 242 251 246 242 251 246 242 251 246 242 251 246 242 251 246 242 251 246 242 251 246 242 251 246 242 251 246 242 251 246 242 251 246 242 251 246 242 251 246 242
251 246 242 251 246 242 251 246 242 251 246 242 251 246 242 251 246 242 251 246 242 251 246 242 251 246 242 251 246 242 251 246 242 251 246 242 251 246 242 251 246 242 251 246 242 251 246 242 251 246 242 251 246 242 251 246 242 251 246 242 251 246 242 251 246 242 251 246 242 251 246 242 251 246 242 251 246 242 251 246 242 251 246 242 184 154 104 184 154 104 184 154 104 184 154 104 184 154 104 255 250 247 255 250 247 255 250 247 255 250 247 255 250 247 255 250 247 255 250 247 255 250 247 255 250 247 255 250 247 255 250 247 255 250 247 255 250 247 255 250 247 255 250 247 255 250 247 255 250 247 255 250 247 255 250 247 255 250 247 255 250 247 255 250 247 255 250 247 255 250 247 255 250 247 255 250 247 255 250 247 255 250 247 255 250 247 255 250 247 255 250 247 184 154 104 184 154 104 184 154 104 184 154 104 184 154 104 251 246 242 251 246 242 251 246 242 251 246 242 251 246 242 251 246 242 251 246 242 251 246 242 251 246 242 251 246 242 251 246 242 251 246 242 251 246 242 251 246 242 251 246 242 251 246 242 251 246 242 251 246 242 251 246 242 251 246 242 251 246 242 251 246 242 251 246 242 251 246 242 251 246 242 251 246 242 251 246 242
251 246 242 251 246 242 251 246 242 251 246 242 251 246 242 251 246 242 251 246 242 251 246 242 251 246 242 251 246 242 251 246 242 251 246 242 251 246 242 251 246 242 251 246 242 251 246 242 251 246 242 251 246 242 251 246 242 251 246 242 251 246 242 251 246 242 251 246 242 251 246 242 251 246 242 251 246 242 251 246 242 251 246 242 251 246 242 251 246 242 184 154 104 184 154 104 184 154 104 184 154 104 184 154 104 184 154 104 255 250 247 255 250 247 255 250 247 255 250 247 255 250 247 255 250 247 255 250 247 255 250 247 255 250 247 255 250 247 255 250 247 255 250 247 255 250 247 255 250 247 255 250 247 255 250 247 255 250 247 255 250 247 255 250 247 255 250 247 255 250 247 255 250 247 255 250 247 255 250 247 255 250 247 184 154 104 184 154 104 184 154 104 184 154 104 184 154 104 184 154 104 251 246 242 251 246 242 251 246 242 251 246 242 251 246 242 251 246 242 251 246 242 251 246 242 251 246 242 251 246 242 251 246 242 251 246 242 251 246 242 251 246 242 251 246 242 251 246 242 251 246 242 251 246 242 251 246 242 251 246 242 251 246 242 251 246 242 251 246 242 251 246 242 251 246 242 251 246 242 251 246 242 251 246 242 251 246 242
251 246 242 251 246 242 251 246 242 251 246 242 251 246 242 251 246 242 251 246 242 251 246 242 251 246 242 251 246 242 251 246 242 251 246 242 251 246 242 251 246 242 251 246 242 251 246 242 251 246 242 251 246 242 251 246 242 251 246 242 251 246 242 251 246 242 251 246 242 251 246 242 251 246 242 251 246 242 251 246 242 251 246 242 251 246 242 251 246 242 251 246 242 251 246 242 251 246 242 184 154 104 184 154 104 184 154 104 184 154 104 184 154 104 184 154 104 255 250 247 255 250 247 255 250 247 255 250 247 255 250 247 255 250 247 255 250 247 255 250 247 255 250 247 255 250 247 255 250 247 255 250 247 255 250 247 255 250 247 255 250 247 255 250 247 255 250 247 255 250 247 255 250 247 184 154 104 184 154 104 184 154 104 184 154 104 184 154 104 184 154 104 251 246 242 251 246 242 251 246 242 251 246 242 251 246 242 251 246 242 251 246 242 251 246 242 251 246 242 251 246 242 251 246 242 251 246 242 251 246 242 251 246 242 251 246 242 251 246 242 251 246 242 251 246 242 251 246 242 251 246 242 251 246 242 251 246 242 251 246 242 251 246 242 251 246 242 251 246 242 251 246 242 251 246 242 251 246 242 251 246 242 251 246 242 251 246 242
251 246 242 251 246 242 251 246 242 251 246 242 251 246 242 251 246 242 251 246 242 251 246 242 251 246 242 251 246 242 251 246 242 251 246 242 251 246 242 251 246 242 251 246 242 251 246 242 251 246 242 251 246 242 251 246 242 251 246 242 251 246 242 251 246 242 251 246 242 251 246 242 251 246 242 251 246 242 251 246 242 251 246 242 251 246 242 251 246 242 251 246 242 251 246 242 251 246 242 251 246 242 251 246 242 184 154 104 184 154 104 184 154 104 184 154 104 184 154 104 184 154 104 184 154 104 184 154 104 184 154 104 184 154 104 184 154 104 184 154 104 184 154 104 255 250 247 184 154 104 184 154 104 184 154 104 184 154 104 184 154 104 184 154 104 184 154 104 184 154 104 184 154 104 184 154 104 184 154 104 184 154 104 184 154 104 251 246 242 251 246 242 251 246 242 251 246 242 251 246 242 251 246 242 251 246 242 251 246 242 251 246 242 251 246 242 251 246 242 251 246 242 251 246 242 251 246 242 251 246 242 251 246 242 251 246 242 251 246 242 251 246 242 251 246 242 251 246 242 251 246 242 251 246 242 251 246 242 251 246 242 251 246 242 251 246 242 251 246 242 251 246 242 251 246 242 251 246 242 251 246 242 251 246 242 251 246 242
251 246 242 251 246 242 251 246 242 251 246 242 251 246 242 251 246 242 251 246 242 251 246 242 251 246 242 251 246 242 251 246 242 251 246 242 251 246 242 251 246 242 251 246 242 251 246 242 251 246 242 251 246 242 251 246 242 251 246 242 251 246 242 251 246 242 251 246 242 251 246 242 251 246 242 251 246 242 251 246 242 251 246 242 251 246 242 251 246 242 251 246 242 251 246 242 251 246 242 251 246 242 251 246 242 251 246 242 251 246 242 251 246 242 251 246 242 184 154 104 184 154 104 184 154 104 184 154 104 184 154 104 184 154 104 184 154 104 184 154 104 184 154 104 184 154 104 184 154 104 184 154 104 184 154 104 184 154 104 184 154 104 184 154 104 184 154 104 184 154 104 184 154 104 251 246 242 251 246 242 251 246 242 251 246 242 251 246 242 251 246 242 251 246 242 251 246 242 251 246 242 251 246 242 251 246 242 251 246 242 251 246 242 251 246 242 251 246 242 251 246 242 251 246 242 251 246 242 251 246 242 251 246 242 251 246 242 251 246 242 251 246 242 251 246 242 251 246 242 251 246 242 251 246 242 251 246 242 251 246 242 251 246 242 251 246 242 251 246 242 251 246 242 251 246 242 251 246 242 251 246 242 251 246 242 251 246 242
251 246 242 251 246 242 251 246 242 251 246 242 251 246 242 251 246 242 251 246 242 251 246 242 251 246 242 251 246 242 251 246 242 251 246 242 251 246 242 251 246 242 251 246 242 251 246 242 251 246 242 251 246 242 251 246 242 251 246 242 251 246 242 251 246 242 251 246 242 251 246 242 251 246 242 251 246 242 251 246 242 251 246 242 251 246 242 251 246 242 251 246 242 251 246 242 251 246 242 251 246 242 251 246 242 251 246 242 251 246 242 251 246 242 251 246 242 251 246 242 251 246 242 251 246 242 251 246 242 251 246 242 251 246 242 251 246 242 251 246 242 251 246 242 251 246 242 251 246 242 251 246 242 251 246 242 251 246 242 251 246 242 251 246 242 251 246 242 251 246 242 251 246 242 251 246 242 251 246 242 251 246 242 251 246 242 251 246 242 251 246 242 251 246 242 251 246 242 251 246 242 251 246 242 251 246 242 251 246 242 251 246 242 251 246 242 251 246 242 251 246 242 251 246 242 251 246 242 251 246 242 251 246 242 251 246 242 251 246 242 251 246 242 251 246 242 251 246 242 251 246 242 251 246 242 251 246 242 251 246 242 251 246 242 251 246 242 251 246 242 251 246 242 251 246 242 251 246 242 251 246 242 251 246 242 251 246 242
251 246 242 251 246 242 251 246 242 251 246 242 251 246 242 251 246 242 251 246 242 251 246 242 251 246 242 251 246 242 251 246 242 251 246 242 251 246 242 251 246 242 251 246 242 251 246 242 251 246 242 251 246 242 251 246 242 251 246 242 251 246 242 251 246 242 251 246 242 251 246 242 251 246 242 251 246 242 251 246 242 251 246 242 251 246 242 251 246 242 251 246 242 251 246 242 251 246 242 251 246 242 251 246 242 251 246 242 251 246 242 251 246 242 251 246 242 251 246 242 251 246 242 251 246 242 251 246 242 251 246 242 251 246 242 251 246 242 251 246 242 251 246 242 251 246 242 251 246 242 251 246 242 251 246 242 251 246 242 251 246 242 251 246 242 251 246 242 251 246 242 251 246 242 251 246 242 251 246 242 251 246 242 251 246 242 251 246 242 251 246 242 251 246 242 251 246 242 251 246 242 251 246 242 251 246 242 251 246 242 251 246 242 251 246 242 251 246 242 251 246 242 251 246 242 251 246 242 251 246 242 251 246 242 251 246 242 251 246 242 251 246 242 251 246 242 251 246 242 251 246 242 251 246 242 251 246 242 251 246 242 251 246 242 251 246 242 251 246 242 251 246 242 251 246 242 251 246 242 251 246 242 251 246 242 251 246 242
251 246 242 251 246 242 251 246 242 251 246 242 251 246 242 251 246 242 251 246 242 251 246 242 251 246 242 251 246 242 251 246 242 251 246 242 251 246 242 251 246 242 251 246 242 251 246 242 251 246 242 251 246 242 251 246 242 251 246 242 251 246 242 251 246 242 251 246 242 251 246 242 251 246 242 251 246 242 251 246 242 251 246 242 251 246 242 251 246 242 251 246 242 251 246 242 251 246 242 251 246 242 251 246 242 251 246 242 251 246 242 251 246 242 251 246 242 251 246 242 251 246 242 251 246 242 251 246 242 251 246 242 251 246 242 251 246 242 251 246 242 251 246 242 251 246 242 251 246 242 251 246 242 251 246 242 251 246 242 251 246 242 251 246 242 251 246 242 251 246 242 251 246 242 251 246 242 251 246 242 251 246 242 251 246 242 251 246 242 251 246 242 251 246 242 251 246 242 251 246 242 251 246 242 251 246 242 251 246 242 251 246 242 251 246 242 251 246 242 251 246 242 251 246 242 251 246 242 251 246 242 251 246 242 251 246 242 251 246 242 251 246 242 251 246 242 251 246 242 251 246 242 251 246 242 251 246 242 251 246 242 251 246 242 251 246 242 251 246 242 251 246 242 251 246 242 251 246 242 251 246 242 251 246 242 251 246 242
251 246 242 251 246 242 251 246 242 251 246 242 251 246 242 251 246 242 251 246 242 251 246 242 251 246 242 251 246 242 251 246 242 251 246 242 251 246 242 251 246 242 251 246 242 251 246 242 251 246 242 251 246 242 251 246 242 251 246 242 251 246 242 251 246 242 251 246 242 251 246 242 251 246 242 251 246 242 251 246 242 251 246 242 251 246 242 251 246 242 251 246 242 251 246 242 251 246 242 251 246 242 251 246 242 251 246 242 251 246 242 251 246 242 251 246 242 251 246 242 251 246 242 251 246 242 251 246 242 251 246 242 251 246 242 251 246 242 251 246 242 251 246 242 251 246 242 251 246 242 251 246 242 251 246 242 251 246 242 251 246 242 251 246 242 251 246 242 251 246 242 251 246 242 251 246 242 251 246 242 251 246 242 251 246 242 251 246 242 251 246 242 251 246 242 251 246 242 251 246 242 251 246 242 251 246 242 251 246 242 251 246 242 251 246 242 251 246 242 251 246 242 251 246 242 251 246 242 251 246 242 251 246 242 251 246 242 251 246 242 251 246 242 251 246 242 251 246 242 251 246 242 251 246 242 251 246 242 251 246 242 251 246 242 251 246 242 251 246 242 251 246 242 251 246 242 251 246 242 251 246 242 251 246 242 251 246 242
